!!!!SEGMENT: pl-stab--5a--001-002_dankowski-adalbert--vespere-ex-c-de-confessoribus-dixit-dominus.krn
!!!cenid: 18xx:3500
!!!COM: Dankowski, Adalbert
!!!COM-rismid: pe30000793
!!!CDT: ~1760-~1836
!!!CNT: Polish
!!!OPR: Vespere ex C de Confessoribus
!!!OTL: Dixit Dominus
!!!OMV: 002
!!!PDT:
!!!AGN: Sacred; Vespers
!!!SMS-siglum: PL-STAb
!!!SMS-shelfmark: 5a
!!!SMS-shelfwork: 001-002 M
!!!SMS-variant:
!!!SMS-altvar:
!!!NIFC-rismid: 301050557
!!!URL-scan: https://repozytorium.nifc.pl/islandora/object/pl-stab%3A1317/datastream/PDF/view
!!!ONB-nifc: UWAGA: części Nieszporów: 1. Domine ad adjuvandum, 2. Dixit Dominus, 3. Confitebor, 4. Beatus vir, 5. Laudate pueri, 6. Laudate Dominum, 7. In Exitu, 8. Magnificat, 9. Quia fecit, 10. Fecit potentiam, 11. Suscepit Israel, 12. Gloria patri
!!!OMD: Allegro
!!!key: C
**kern	**fba	**dynam	**kern	**dynam	**kern	**dynam	**kern	**text	**kern	**text	**kern	**text	**kern	**text	**dynam	**kern	**dynam	**kern
*part9	*part9	*part9	*part8	*part8	*part7	*part7	*part6	*part6	*part5	*part5	*part4	*part4	*part3	*part3	*part3	*part2	*part2	*part1
*staff9	*staff9	*	*staff8	*	*staff7	*	*staff6	*staff6	*staff5	*staff5	*staff4	*staff4	*staff3	*staff3	*	*staff2	*	*staff1
*I"Organo	*	*	*I"Violino Secondo	*	*I"Violino Primo	*	*I"Baſso.	*	*I"Tenore.	*	*I"Alto.	*	*I"Canto	*	*	*I"Cornu Secondo Ex C.	*	*I"Cornu Primo Ex C.
*I'org (= bc)	*	*	*I'vl 2	*	*I'vl 1	*	*I'B	*	*I'T	*	*I'A	*	*I'S	*	*	*I'cor 2	*	*I'cor 1
*Iorgan	*	*	*Ivioln	*	*Ivioln	*	*Ibass	*	*Itenor	*	*Ialto	*	*Isoprn	*	*	*Icor	*	*Icor
*ICklav	*	*	*ICstr	*	*ICstr	*	*ICvox	*	*ICvox	*	*ICvox	*	*ICvox	*	*	*ICbras	*	*ICbras
*IGcont	*	*	*IGripn	*	*IGripn	*	*IGcoro	*	*IGcoro	*	*IGcoro	*	*IGcoro	*	*	*IGripn	*	*IGripn
*clefF4	*	*	*clefG2	*	*clefG2	*	*clefF4	*	*clefC4	*	*clefC3	*	*clefC1	*	*	*clefG2	*	*clefG2
*k[]	*	*	*k[]	*	*k[]	*	*k[]	*	*k[]	*	*k[]	*	*k[]	*	*	*k[]	*	*k[]
*C:	*	*	*C:	*	*C:	*	*C:	*	*C:	*	*C:	*	*C:	*	*	*C:	*	*C:
*M2/2	*	*	*M2/2	*	*M2/2	*	*M2/2	*	*M2/2	*	*M2/2	*	*M2/2	*	*	*M2/2	*	*M2/2
*met(c|)	*	*	*met(c|)	*	*met(c|)	*	*met(c|)	*	*met(c|)	*	*met(c|)	*	*met(c|)	*	*	*met(c|)	*	*met(c|)
=1	=1	=1	=1	=1	=1	=1	=1	=1	=1	=1	=1	=1	=1	=1	=1	=1	=1	=1
*	*	*	*	*	*	*	*2\right	*	*2\right	*	*2\right	*	*2\right	*	*	*	*	*
!	!	!LO:DY:a:t=piano	!	!	!	!	!	!	!	!	!	!	!	!	!LO:DY:a:t=p.:rj	!	!LO:DY:a:t=for:rj	!
8C/L	.	p	4.cc\	.	4.ee\	.	2c\	Di-	2c\	Di-	2g\	Di-	2ee\	Di-	p	00r	f	00r
8C/	.	.	.	.	.	.	.	.	.	.	.	.	.	.	.	.	.	.
8C/	.	.	.	.	.	.	.	.	.	.	.	.	.	.	.	.	.	.
8C/J	.	.	8dd\	.	8ff\	.	.	.	.	.	.	.	.	.	.	.	.	.
*tremolo	*	*	*	*	*	*	*	*	*	*	*	*	*	*	*	*	*	*
8C/L	.	.	4ee\	.	8gg\L	.	2c\	-xit	2c\	-xit	2g\	-xit	2ee\	-xit	.	.	.	.
8C/	.	.	.	.	8aa\	.	.	.	.	.	.	.	.	.	.	.	.	.
8C/	.	.	4ee\	.	8bb\	.	.	.	.	.	.	.	.	.	.	.	.	.
8C/J	.	.	.	.	8ccc\J	.	.	.	.	.	.	.	.	.	.	.	.	.
=2	=2	=2	=2	=2	=2	=2	=2	=2	=2	=2	=2	=2	=2	=2	=2	=2	=2	=2
8C/L	.	.	4.ee\	.	4.gg\	.	4.c\	Do-	4.c\	Do-	4.g\	Do-	4.ee\	Do-	.	.	.	.
8C/	.	.	.	.	.	.	.	.	.	.	.	.	.	.	.	.	.	.
8C/	.	.	.	.	.	.	.	.	.	.	.	.	.	.	.	.	.	.
*	*	*	*Xtuplet	*	*Xtuplet	*	*	*	*	*	*	*	*	*	*	*	*	*
8C/J	.	.	24ff\LL	.	24aa\LL	.	8c\	-mi-	8c\	.	8f\	-mi-	8dd\	-mi-	.	.	.	.
.	.	.	24ee\	.	24gg\	.	.	.	.	.	.	.	.	.	.	.	.	.
.	.	.	24dd\JJ	.	24ff\JJ	.	.	.	.	.	.	.	.	.	.	.	.	.
8C/L	.	.	4cc\	.	4ee\	.	4c\	-nus	4c\	-mi-	4e\	-nuſ	4cc\	-nuſ	.	.	.	.
8C/	.	.	.	.	.	.	.	.	.	.	.	.	.	.	.	.	.	.
8C/	.	.	4cc\	.	4ee\	.	4c\	Do-	4G/	-nus	4e\	Do-	4cc\	Do-	.	.	.	.
8C/J	.	.	.	.	.	.	.	.	.	.	.	.	.	.	.	.	.	.
=3	=3	=3	=3	=3	=3	=3	=3	=3	=3	=3	=3	=3	=3	=3	=3	=3	=3	=3
*2\right	*	*	*	*	*	*	*	*	*	*	*	*	*	*	*	*	*	*
8F\L	6	.	4.dd\	.	4.ff\	.	4F\	-mi-	4A/	Do-	4f\	-mi-	4dd\	-mi-	.	.	.	.
8F\	.	.	.	.	.	.	.	.	.	.	.	.	.	.	.	.	.	.
8F\	.	.	.	.	.	.	4F\	-no	4A/	-mi-	4f\	-no	4dd\	-no	.	.	.	.
8F\J	.	.	16ee\LL	.	16gg\LL	.	.	.	.	.	.	.	.	.	.	.	.	.
.	.	.	16dd\JJ	.	16ff\JJ	.	.	.	.	.	.	.	.	.	.	.	.	.
8G\L	3	.	4b\	.	4dd\	.	2G\	me-	2G/	-no	2d\	me-	2b\	me-	.	.	.	.
8G\	.	.	.	.	.	.	.	.	.	.	.	.	.	.	.	.	.	.
8G\	.	.	4b\	.	4dd\	.	.	.	.	.	.	.	.	.	.	.	.	.
8G\J	.	.	.	.	.	.	.	.	.	.	.	.	.	.	.	.	.	.
=4	=4	=4	=4	=4	=4	=4	=4	=4	=4	=4	=4	=4	=4	=4	=4	=4	=4	=4
8C/L	.	.	4.cc\	.	4.ee\	.	4C/	-o	4G/	Se-	4e\	-o	4cc\	-o	.	.	.	.
8C/	.	.	.	.	.	.	.	.	.	.	.	.	.	.	.	.	.	.
8C/	.	.	.	.	.	.	4c\	Se-	4c\	-de	8e\L	ſe-	8cc\L	Se-	.	.	.	.
8C/J	.	.	8dd\	.	8ff\	.	.	.	.	.	8f\J	.	8dd\J	.	.	.	.	.
8C/L	.	.	8ff\L	.	8aa\L	.	4c\	-de	4c\	.	8a\L	-de	8ff\L	-de	.	.	.	.
8C/	.	.	8ee\	.	8gg\	.	.	.	.	.	8g\J	a	8ee\J	.	.	.	.	.
8C/	.	.	8dd\	.	8ff\	.	4c\	a	4c\	a	8f\L	dex-	8dd\L	a	.	.	.	.
8C/J	.	.	8cc\J	.	8ee\J	.	.	.	.	.	8e\J	.	8cc\J	.	.	.	.	.
!	!	!	!	!	!	!	!LO:LB:g=original	!	!	!	!	!	!	!	!	!	!	!
=5	=5	=5	=5	=5	=5	=5	=5	=5	=5	=5	=5	=5	=5	=5	=5	=5	=5	=5
8F\L	6	.	8ee\L	.	8gg\L	.	4F\	dex-	4A/	dex-	4f\	.	4dd\	dex-	.	1r	.	1r
8F\	.	.	8dd\	.	8ff\	.	.	.	.	.	.	.	.	.	.	.	.	.
8F\	.	.	8ff\	.	8aa\	.	4F\	-triſ	4A/	-triſ	4f\	-triſ	4dd\	-triſ	.	.	.	.
8F\J	.	.	8dd\J	.	8ff\J	.	.	.	.	.	.	.	.	.	.	.	.	.
!	!	!	!	!	!	!	!	!	!	!	!	!	!LO:LB:g=original	!	!	!	!	!
=-	=-	=-	=-	=-	=-	=-	=-	=-	=-	=-	=-	=-	=-	=-	=-	=-	=-	=-
8G\L	3	.	4b\	.	4dd\	.	2G\	me-	2G/	me-	2d\	me-	2b\	me-	.	.	.	.
8G\	.	.	.	.	.	.	.	.	.	.	.	.	.	.	.	.	.	.
8G\	.	.	4b\	.	4dd\	.	.	.	.	.	.	.	.	.	.	.	.	.
8G\J	.	.	.	.	.	.	.	.	.	.	.	.	.	.	.	.	.	.
*Xtremolo	*	*	*	*	*	*	*	*	*	*	*	*	*	*	*	*	*	*
!	!	!	!	!	!	!	!	!	!LO:LB:g=original	!	!LO:LB:g=original	!	!	!	!	!	!	!
=6	=6	=6	=6	=6	=6	=6	=6	=6	=6	=6	=6	=6	=6	=6	=6	=6	=6	=6
!	!	!LO:DY:a:t=for=	!	!	!	!	!	!	!	!	!	!	!	!	!	!	!	!
8C/L	.	f	8G/ 8e	.	4ee\	.	2C/	-is	2G/	-is	2e\	-is	2cc\	-is	.	4e/	.	4cc\
8C/	.	.	4G/ 4e	.	.	.	.	.	.	.	.	.	.	.	.	.	.	.
8C/	.	.	.	.	8r	.	.	.	.	.	.	.	.	.	.	8e/L	.	8cc\L
8C/J	.	.	4G/ 4e	.	16c/LL	.	.	.	.	.	.	.	.	.	.	8e/J	.	8cc\J
.	.	.	.	.	16e/JJ	.	.	.	.	.	.	.	.	.	.	.	.	.
*tremolo	*	*	*	*	*	*	*	*	*	*	*	*	*	*	*	*	*	*
8C/L	.	.	.	.	8g\L	.	4c\	Do-	4c\	Do-	4g\	Do-	4ee\	Do-	.	4e/	.	4cc\
8C/	.	.	4G/ 4e	.	8cc\	.	.	.	.	.	.	.	.	.	.	.	.	.
8C/	.	.	.	.	8ee\	.	4c\	-nec	4c\	-nec	4g\	-nec	4ee\	-nec	.	4r	.	4r
8C/J	.	.	8G/ 8e	.	8gg\J	.	.	.	.	.	.	.	.	.	.	.	.	.
*Xtremolo	*	*	*	*	*	*	*	*	*	*	*	*	*	*	*	*	*	*
!LO:LB:g=original	!	!	!LO:LB:g=original	!	!LO:LB:g=original	!	!	!	!	!	!	!	!	!	!	!	!	!
=7	=7	=7	=7	=7	=7	=7	=7	=7	=7	=7	=7	=7	=7	=7	=7	=7	=7	=7
8BB/L	6 5	.	8G/ 8d	.	4.gg\	.	2B\	po-	2d\	po-	2g\	po-	2dd\	po-	.	4g/	.	4dd\
8BB/	.	.	4G/ 4d	.	.	.	.	.	.	.	.	.	.	.	.	.	.	.
8BB/	.	.	.	.	.	.	.	.	.	.	.	.	.	.	.	8g/L	.	8dd\L
8BB/J	_ _	.	4G/ 4d	.	8ff\	.	.	.	.	.	.	.	.	.	.	8g/J	.	8dd\J
*tremolo	*	*	*	*	*	*	*	*	*	*	*	*	*	*	*	*	*	*
8BB/L	x x	.	.	.	8dd/L	.	2B\	-nam	2d\	-nam	2g\	-nam	2dd\	-nam	.	4g/	.	4dd\
8BB/	.	.	4G/ 4d	.	8b/	.	.	.	.	.	.	.	.	.	.	.	.	.
8BB/	.	.	.	.	8g/	.	.	.	.	.	.	.	.	.	.	4r	.	4r
8BB/J	.	.	8G/ 8d	.	8f/J	.	.	.	.	.	.	.	.	.	.	.	.	.
=8	=8	=8	=8	=8	=8	=8	=8	=8	=8	=8	=8	=8	=8	=8	=8	=8	=8	=8
8C/L	5 3	.	8G/ 8e	.	4e/	.	4c\	i-	4c\	i-	4g\	i-	4ee\	i-	.	4e/	.	4cc\
8C/	.	.	4G/ 4e	.	.	.	.	.	.	.	.	.	.	.	.	.	.	.
8C/	.	.	.	.	8r	.	4c\	-ni-	4c\	-ni-	4g\	-ni-	4ee\	-ni-	.	8e/L	.	8cc\L
8C/J	.	.	4G/ 4e	.	16c/LL	.	.	.	.	.	.	.	.	.	.	8e/J	.	8cc\J
.	.	.	.	.	16e/JJ	.	.	.	.	.	.	.	.	.	.	.	.	.
8C/L	.	.	.	.	8g\L	.	4c\	-mi-	4c\	-mi-	4g\	-mi-	4ee\	-mi-	.	4e/	.	4cc\
8C/	.	.	4G/ 4e	.	8cc\	.	.	.	.	.	.	.	.	.	.	.	.	.
8C/	.	.	.	.	8ee\	.	4c\	-cos	4c\	-cos	4g\	-cos	4ee\	-cos	.	4r	.	4r
8C/J	.	.	8G/ 8e	.	8gg\J	.	.	.	.	.	.	.	.	.	.	.	.	.
=9	=9	=9	=9	=9	=9	=9	=9	=9	=9	=9	=9	=9	=9	=9	=9	=9	=9	=9
8BB/L	6 5	.	8G/ 8d	.	4.gg\	.	2B\	tu-	2d\	tu-	2g\	tu-	2dd\	tu-	.	4g/	.	4dd\
8BB/	.	.	4G/ 4d	.	.	.	.	.	.	.	.	.	.	.	.	.	.	.
8BB/	.	.	.	.	.	.	.	.	.	.	.	.	.	.	.	8g/L	.	8dd\L
8BB/J	.	.	4G/ 4d	.	8ff\	.	.	.	.	.	.	.	.	.	.	8g/J	.	8dd\J
8BB/L	_ _	.	.	.	8dd/L	.	4B\	-os	4d\	-os	4g\	-os	4dd\	-os	.	4g/	.	4dd\
8BB/	x x	.	4G/ 4d	.	8b/	.	.	.	.	.	.	.	.	.	.	.	.	.
8BB/	.	.	.	.	8g/	.	4B\	Sca-	4d\	Scam-	4g\	Sca-	4dd\	Sca-	.	4r	.	4r
8BB/J	.	.	8G/ 8d	.	8f/J	.	.	.	.	.	.	.	.	.	.	.	.	.
!	!	!	!	!	!	!	!LO:LB:g=original	!	!	!	!	!	!	!	!	!	!	!
=10	=10	=10	=10	=10	=10	=10	=10	=10	=10	=10	=10	=10	=10	=10	=10	=10	=10	=10
8C/L	8 3	.	8G/ 8e	.	4e/	.	2c\	-bel-	2c\	-bel-	2g\	-bel-	2ee\	-be-	.	4cc\	.	4ee\
8C/	.	.	4e\ 4cc	.	.	.	.	.	.	.	.	.	.	.	.	.	.	.
8C/	.	.	.	.	8r	.	.	.	.	.	.	.	.	.	.	8cc\L	.	8ee\L
8C/J	.	.	4e\ 4cc	.	16cc\LL	.	.	.	.	.	.	.	.	.	.	8cc\J	.	8ee\J
.	.	.	.	.	16dd\JJ	.	.	.	.	.	.	.	.	.	.	.	.	.
8c\L	_ _	.	.	.	8ee\L	.	2c\	-lum	2c\	-lum	2g\	-lum	2ee\	-lum	.	4cc\	.	4ee\
8c\	.	.	4e\ 4cc	.	8cc\	.	.	.	.	.	.	.	.	.	.	.	.	.
8c\	.	.	.	.	8ee\	.	.	.	.	.	.	.	.	.	.	4cc\	.	4ee\
8c\J	.	.	8e\ 8cc	.	8cc\J	.	.	.	.	.	.	.	.	.	.	.	.	.
!	!	!	!	!	!	!	!	!	!	!	!	!	!	!	!	!LO:LB:g=original	!	!
=11	=11	=11	=11	=11	=11	=11	=11	=11	=11	=11	=11	=11	=11	=11	=11	=11	=11	=11
8A\L	.	.	8e\ 8cc	.	4ee\	.	2A\	pe-	2c\	pe-	2a\	pe-	2ee\	pe-	.	4cc\	.	4ee\
8A\	.	.	4e\ 4cc	.	.	.	.	.	.	.	.	.	.	.	.	.	.	.
8A\	.	.	.	.	8r	.	.	.	.	.	.	.	.	.	.	8cc\L	.	8ee\L
8A\J	.	.	4e\ 4cc	.	16cc\LL	.	.	.	.	.	.	.	.	.	.	8cc\J	.	8ee\J
!	!	!	!	!	!LO:TX:t=d	!	!	!	!	!	!	!	!	!	!	!	!	!
.	.	.	.	.	16dd\JJ	.	.	.	.	.	.	.	.	.	.	.	.	.
!	!	!	!	!	!	!	!	!	!	!	!	!	!	!	!	!	!	!LO:LB:g=original
=-	=-	=-	=-	=-	=-	=-	=-	=-	=-	=-	=-	=-	=-	=-	=-	=-	=-	=-
8A\L	.	.	.	.	8ee\L	.	4A\	-dum	4c\	-dum	4a\	-dum	4ee\	-dum	.	4cc\	.	4ee\
8A\	.	.	4e\ 4cc	.	8cc\	.	.	.	.	.	.	.	.	.	.	.	.	.
8A\	.	.	.	.	8ee\	.	4A\	tu-	4c\	tu-	4a\	tu-	4ee\	tu-	.	4cc\	.	4ee\
8A\J	.	.	8e\ 8cc	.	8cc\J	.	.	.	.	.	.	.	.	.	.	.	.	.
!	!	!	!	!	!	!	!	!	!	!	!	!	!LO:LB:g=original	!	!	!	!	!
=12	=12	=12	=12	=12	=12	=12	=12	=12	=12	=12	=12	=12	=12	=12	=12	=12	=12	=12
8F#X\L	.	.	8e\L 8cc	.	8ee\L	.	1F#X	-o-	1c	-o-	1a	-o-	1ee	-o-	.	4cc\	.	4ee\
8F#\	.	.	16a\L	.	16cc\L	.	.	.	.	.	.	.	.	.	.	.	.	.
.	.	.	16b\JJ	.	16dd\JJ	.	.	.	.	.	.	.	.	.	.	.	.	.
8F#\	.	.	8cc\L	.	8ee\L	.	.	.	.	.	.	.	.	.	.	4cc\	.	4ee\
8F#\J	.	.	16a\L	.	16cc\L	.	.	.	.	.	.	.	.	.	.	.	.	.
.	.	.	16b\JJ	.	16dd\JJ	.	.	.	.	.	.	.	.	.	.	.	.	.
!	!	!	!LO:LB:g=original	!	!	!	!	!	!	!	!	!	!	!	!	!	!	!
=-	=-	=-	=-	=-	=-	=-	=-	=-	=-	=-	=-	=-	=-	=-	=-	=-	=-	=-
8F#\L	.	.	8cc\L	.	8ee\L	.	.	.	.	.	.	.	.	.	.	4cc\	.	4ee\
8F#\	.	.	16a\L	.	16cc\L	.	.	.	.	.	.	.	.	.	.	.	.	.
.	.	.	16b\JJ	.	16dd\JJ	.	.	.	.	.	.	.	.	.	.	.	.	.
8F#\	.	.	8cc\L	.	8ee\L	.	.	.	.	.	.	.	.	.	.	4cc\	.	4ee\
8F#\J	.	.	16a\L	.	16cc\L	.	.	.	.	.	.	.	.	.	.	.	.	.
.	.	.	16b\JJ	.	16dd\JJ	.	.	.	.	.	.	.	.	.	.	.	.	.
*Xtremolo	*	*	*	*	*	*	*	*	*	*	*	*	*	*	*	*	*	*
!	!	!	!	!	!LO:LB:g=original	!	!	!	!LO:LB:g=original	!	!LO:LB:g=original	!	!	!	!	!	!	!
=13	=13	=13	=13	=13	=13	=13	=13	=13	=13	=13	=13	=13	=13	=13	=13	=13	=13	=13
4G\	x x	.	4cc\	.	4ee\	.	4G\	-rum	4c\	-rum	4g\	-rum	4ee\	-rum	.	4cc\	.	4ee\
4r	.	.	4r	.	4r	.	4r	.	4r	.	4r	.	4r	.	.	4r	.	4r
!	!	!	!	!	!	!	!	!	!	!	!LO:TX:a:i:t=Solo:rj	!	!LO:TX:a:i:t=Solo	!	!	!	!	!
2r	.	.	8g/L	.	8b\L	.	2r	.	2r	.	8g\L	Vir-	8b\L	Vir-	.	2r	.	2r
.	.	.	8f#X/	.	8a\	.	.	.	.	.	8f#X\J	.	8a\J	.	.	.	.	.
.	.	.	8g/	.	8b\	.	.	.	.	.	8g\L	-gam	8b\L	-gam	.	.	.	.
.	.	.	8a/J	.	8cc\J	.	.	.	.	.	8a\J	.	8cc\J	.	.	.	.	.
=14	=14	=14	=14	=14	=14	=14	=14	=14	=14	=14	=14	=14	=14	=14	=14	=14	=14	=14
*	*	*	*	*	*2\right	*	*	*	*	*	*	*	*	*	*	*	*	*
4r	.	.	2.b/	.	2dd\	.	00r	.	00r	.	2b\	Vir-	2dd\	Vir-	.	00r	.	00r
!	!	!LO:DY:a:t=pia fo	!	!	!	!	!	!	!	!	!	!	!	!	!	!	!	!
4G\	.	f	.	.	.	.	.	.	.	.	.	.	.	.	.	.	.	.
4GG/	.	.	.	.	8gg\L	.	.	.	.	.	4b\	-tu-	8gg\L	-tu-	.	.	.	.
.	.	.	.	.	8ff#X\	.	.	.	.	.	.	.	8ff#X\J	.	.	.	.	.
4G\	.	.	4b/	.	8ee\	.	.	.	.	.	4b\	-tis	8ee\L	-tiſ	.	.	.	.
.	.	.	.	.	8dd\J	.	.	.	.	.	.	.	8dd\J	.	.	.	.	.
=15	=15	=15	=15	=15	=15	=15	=15	=15	=15	=15	=15	=15	=15	=15	=15	=15	=15	=15
4D\	8 6	.	4b/	.	4dd\	.	.	.	.	.	4b\	tu-	4dd\	tu-	.	.	.	.
4DD/	5	.	4a/	.	4cc\	.	.	.	.	.	4a\	-e	4cc\	-e	.	.	.	.
*	*	*	*	*	*	*	*	*	*	*	*	*ij	*	*	*	*	*	*
2r	.	.	8f#X/L	.	8a/L	.	.	.	.	.	8f#X\L	Vir-	8a\L	Vir-	.	.	.	.
.	.	.	8e/	.	8g/	.	.	.	.	.	8e\J	.	8g\J	.	.	.	.	.
.	.	.	8f#/	.	8a/	.	.	.	.	.	8f#\L	-gam	8a\L	-gam	.	.	.	.
.	.	.	8g/J	.	8b/J	.	.	.	.	.	8g\J	.	8b\J	.	.	.	.	.
!LO:LB:g=original	!	!	!	!	!	!	!	!	!	!	!	!	!	!	!	!	!	!
=16	=16	=16	=16	=16	=16	=16	=16	=16	=16	=16	=16	=16	=16	=16	=16	=16	=16	=16
4r	.	.	2a/	.	2cc\	.	.	.	.	.	2a\	Vir-	2cc\	Vir-	.	.	.	.
4D\	7 #	.	.	.	.	.	.	.	.	.	.	.	.	.	.	.	.	.
4DD/	_ _	.	4cc/	.	8aa\L	.	.	.	.	.	4cc\	-tu-	8aa\L	-tu-	.	.	.	.
!	!	!	!	!	!LO:TX:a:t=P:problem=# above	!	!	!	!	!	!	!	!	!	!	!	!	!
!	!	!	!	!	!LO:SIC:v:s=8ff#X\	!	!	!	!	!	!	!	!	!	!	!	!	!
.	.	.	.	.	8gg#X\	.	.	.	.	.	.	.	8ff#X\J	.	.	.	.	.
4D\	x x	.	4a/	.	8dd\	.	.	.	.	.	4a\	-tis	8dd\L	-tiſ	.	.	.	.
.	.	.	.	.	8cc\J	.	.	.	.	.	.	.	8cc\J	.	.	.	.	.
!	!	!	!	!	!	!	!	!	!	!	!	!	!LO:LB:g=original	!	!	!	!	!
=17	=17	=17	=17	=17	=17	=17	=17	=17	=17	=17	=17	=17	=17	=17	=17	=17	=17	=17
4G\	9 4	.	4a/	.	4cc\	.	.	.	.	.	4a\	tu-	4cc\	tu-	.	.	.	.
4GG/	8 3	.	4g/	.	4b\	.	.	.	.	.	4g\	-e	4b\	-ae	.	.	.	.
*	*	*	*	*	*	*	*	*	*	*	*	*Xij	*	*	*	*	*	*
4G\	.	.	4b\	.	8dd\L	.	.	.	.	.	2b\	e-	8dd\L	ae-	.	.	.	.
.	.	.	.	.	8ee\	.	.	.	.	.	.	.	8ee\	.	.	.	.	.
4r	.	.	4b\	.	8ff#X\	.	.	.	.	.	.	.	8ff#X\	.	.	.	.	.
.	.	.	.	.	8gg\J	.	.	.	.	.	.	.	8gg\J	.	.	.	.	.
!	!	!	!	!	!	!	!	!	!	!	!LO:PB:g=original	!	!	!	!	!	!	!
=18	=18	=18	=18	=18	=18	=18	=18	=18	=18	=18	=18	=18	=18	=18	=18	=18	=18	=18
*	*	*	*2\right	*	*	*	*	*	*	*	*	*	*	*	*	*	*	*
8r	.	.	2cc\	.	2ee\	.	00r	.	00r	.	2cc\	.	2ee\	.	.	00r	.	00r
8F#X\L	7 5	.	.	.	.	.	.	.	.	.	.	.	.	.	.	.	.	.
8G\	_ _	.	.	.	.	.	.	.	.	.	.	.	.	.	.	.	.	.
8F#\J	.	.	.	.	.	.	.	.	.	.	.	.	.	.	.	.	.	.
8G\L	5 3	.	4b\	.	4dd\	.	.	.	.	.	4b\	-mit-	4dd\	-mit-	.	.	.	.
8F#\	_ _	.	.	.	.	.	.	.	.	.	.	.	.	.	.	.	.	.
8G\	4 2	.	4a/	.	4cc\	.	.	.	.	.	4a\	-tet	4cc\	-tet	.	.	.	.
8F#\J	_ _	.	.	.	.	.	.	.	.	.	.	.	.	.	.	.	.	.
=19	=19	=19	=19	=19	=19	=19	=19	=19	=19	=19	=19	=19	=19	=19	=19	=19	=19	=19
4G\	3	.	8g/L	.	4.b\	.	.	.	.	.	4.g\	Do-	4.b\	Do-	.	.	.	.
.	.	.	8f#X/	.	.	.	.	.	.	.	.	.	.	.	.	.	.	.
4GG/	_	.	8g/	.	.	.	.	.	.	.	.	.	.	.	.	.	.	.
.	.	.	8a/J	.	8cc\	.	.	.	.	.	8a\	-mi-	8cc\	-mi-	.	.	.	.
!	!	!	!LO:LB:g=original	!	!	!	!	!	!	!	!	!	!	!	!	!	!	!
=-	=-	=-	=-	=-	=-	=-	=-	=-	=-	=-	=-	=-	=-	=-	=-	=-	=-	=-
4G\	x	.	4b\	.	8dd\L	.	.	.	.	.	4b\	-nuſ	8dd\L	-nuſ	.	.	.	.
.	.	.	.	.	8ee\	.	.	.	.	.	.	.	8ee\J	.	.	.	.	.
4r	.	.	4b\	.	8ff#X\	.	.	.	.	.	4b\	ex	8ff#X\L	ex	.	.	.	.
.	.	.	.	.	8gg\J	.	.	.	.	.	.	.	8gg\J	.	.	.	.	.
=20	=20	=20	=20	=20	=20	=20	=20	=20	=20	=20	=20	=20	=20	=20	=20	=20	=20	=20
8r	.	.	2cc\	.	2ee\	.	.	.	.	.	2cc\	Si-	2ee\	ſi-	.	.	.	.
8F#X\L	7 5	.	.	.	.	.	.	.	.	.	.	.	.	.	.	.	.	.
8G\	_ _	.	.	.	.	.	.	.	.	.	.	.	.	.	.	.	.	.
8F#\J	.	.	.	.	.	.	.	.	.	.	.	.	.	.	.	.	.	.
8G\L	5 3	.	4b\	.	4dd\	.	.	.	.	.	4b\	.	4dd\	.	.	.	.	.
8F#\	_	.	.	.	.	.	.	.	.	.	.	.	.	.	.	.	.	.
8G\	4 2	.	4a\	.	4cc\	.	.	.	.	.	4a\	.	4cc\	.	.	.	.	.
8F#\J	_	.	.	.	.	.	.	.	.	.	.	.	.	.	.	.	.	.
=21	=21	=21	=21	=21	=21	=21	=21	=21	=21	=21	=21	=21	=21	=21	=21	=21	=21	=21
4G\	3	.	4g/	.	4b\	.	.	.	.	.	4g\	-on	4b\	-on	.	.	.	.
4GG/	_	.	4r	.	4r	.	.	.	.	.	4r	.	4r	.	.	.	.	.
4G\	.	.	4b/	.	4dd\	.	.	.	.	.	4b\	Do-	4dd\	Do-	.	.	.	.
4r	x	.	8a/L	.	8cc\L	.	.	.	.	.	8a\L	-mi-	8cc\L	-mi-	.	.	.	.
!	!	!	!	!	!	!	!	!	!	!	!	!	!LO:TX:b:i:t=Verti	!	!	!	!	!
.	.	.	8g/J	.	8b\J	.	.	.	.	.	8g\J	.	8b\J	.	.	.	.	.
!	!	!	!	!	!LO:LB:g=original	!	!	!	!	!	!	!	!LO:PB:g=original	!	!	!	!	!
=22	=22	=22	=22	=22	=22	=22	=22	=22	=22	=22	=22	=22	=22	=22	=22	=22	=22	=22
4r	.	.	4.f#X/	.	4.a/	.	00r	.	00r	.	4.f#X\	-na-	4.a\	-na-	.	00r	.	00r
8D\L	#_	.	.	.	.	.	.	.	.	.	.	.	.	.	.	.	.	.
8C#X\J	.	.	8g/	.	8b\	.	.	.	.	.	8g\	-re	8b\	.	.	.	.	.
4D\	.	.	4f#/	.	8a\L	.	.	.	.	.	4f#\	.	8a\L	-re	.	.	.	.
.	.	.	.	.	8b\	.	.	.	.	.	.	.	8b\J	.	.	.	.	.
4D\	x	.	4f#/	.	8cc\	.	.	.	.	.	4f#\	in	8cc\L	in	.	.	.	.
.	.	.	.	.	8dd\J	.	.	.	.	.	.	.	8dd\J	.	.	.	.	.
!	!	!	!	!	!	!	!	!	!	!	!LO:LB:g=original	!	!	!	!	!	!	!
=23	=23	=23	=23	=23	=23	=23	=23	=23	=23	=23	=23	=23	=23	=23	=23	=23	=23	=23
4G\	9 4	.	4.a/	.	4.cc\	.	.	.	.	.	4.a\	me-	4.cc\	me-	.	.	.	.
4GG/	_ _	.	.	.	.	.	.	.	.	.	.	.	.	.	.	.	.	.
.	.	.	16b/LL	.	16dd\LL	.	.	.	.	.	16b\LL	-di-	16dd\LL	-di-	.	.	.	.
.	.	.	16a/JJ	.	16cc\JJ	.	.	.	.	.	16a\JJ	.	16cc\JJ	.	.	.	.	.
4G\	8 3	.	4g/	.	4b\	.	.	.	.	.	4g\	-o	4b\	-o	.	.	.	.
4G\	_ _	.	4b/	.	4dd\	.	.	.	.	.	4b\	i-	4dd\	i-	.	.	.	.
=24	=24	=24	=24	=24	=24	=24	=24	=24	=24	=24	=24	=24	=24	=24	=24	=24	=24	=24
4G\	6 4	.	2cc\	.	2ee\	.	.	.	.	.	2cc\	-ni-	2ee\	-ni-	.	.	.	.
4G\	_ _	.	.	.	.	.	.	.	.	.	.	.	.	.	.	.	.	.
4G\	7#r 2	.	2a/	.	2ff#X\	.	.	.	.	.	2a\	-mi-	2ff#X\	-mi-	.	.	.	.
4G\	_ _	.	.	.	.	.	.	.	.	.	.	.	.	.	.	.	.	.
=25	=25	=25	=25	=25	=25	=25	=25	=25	=25	=25	=25	=25	=25	=25	=25	=25	=25	=25
4G\	8 3	.	4.b\	.	4.gg\	.	.	.	.	.	4.b\	-co-	4.gg\	-co-	.	.	.	.
4GG/	_ _	.	.	.	.	.	.	.	.	.	.	.	.	.	.	.	.	.
.	.	.	8cc\	.	16bb\LL	.	.	.	.	.	8cc\	.	16bb\LL	.	.	.	.	.
.	.	.	.	.	16aa\JJ	.	.	.	.	.	.	.	16aa\JJ	.	.	.	.	.
4G\	x	.	8ee\L	.	8gg\L	.	.	.	.	.	8ee\L	.	8gg\L	.	.	.	.	.
.	.	.	8dd\	.	8ff#X\	.	.	.	.	.	8dd\	.	8ff#X\	.	.	.	.	.
4r	.	.	8cc\	.	8ee\	.	.	.	.	.	8cc\	.	8ee\	.	.	.	.	.
!	!	!	!LO:TX:b:i:t=Verte Cito	!	!	!	!	!	!	!	!	!	!	!	!	!	!	!
.	.	.	8b\J	.	8dd\J	.	.	.	.	.	8b\J	.	8dd\J	.	.	.	.	.
!	!	!	!LO:PB:g=original	!	!	!	!	!	!	!	!	!	!	!	!	!	!	!
=26	=26	=26	=26	=26	=26	=26	=26	=26	=26	=26	=26	=26	=26	=26	=26	=26	=26	=26
4r	.	.	8b/L	.	8dd\L	.	00r	.	00r	.	8b\L	-rum	8dd\L	-rum	.	00r	.	00r
.	.	.	8a/	.	8cc\	.	.	.	.	.	8a\J	.	8cc\J	.	.	.	.	.
4c\	6	.	8cc/	.	8ee\	.	.	.	.	.	8cc\L	tu-	8ee\L	tu-	.	.	.	.
.	.	.	8a/J	.	8cc\J	.	.	.	.	.	8a\J	.	8cc\J	.	.	.	.	.
!	!	!	!	!	!	!	!	!	!	!	!	!	!LO:LB:g=original	!	!	!	!	!
=-	=-	=-	=-	=-	=-	=-	=-	=-	=-	=-	=-	=-	=-	=-	=-	=-	=-	=-
4d\	6 4	.	4g/	.	4b/	.	.	.	.	.	4g\	-o-	4b\	-o-	.	.	.	.
4D\	5 #	.	4f#X/	.	4a/	.	.	.	.	.	4f#X\	.	4a\	.	.	.	.	.
=27	=27	=27	=27	=27	=27	=27	=27	=27	=27	=27	=27	=27	=27	=27	=27	=27	=27	=27
!	!	!	!LO:TX:a:i:t=Solo	!	!LO:TX:a:i:t=Solo	!	!	!	!	!	!	!	!	!	!	!	!	!
4G\	.	.	8B/L	.	8b\L	.	.	.	.	.	4g\	-rum	4b\	-rum	.	.	.	.
.	.	.	8A/	.	8a\	.	.	.	.	.	.	.	.	.	.	.	.	.
4GG/	.	.	8B/	.	8b\	.	.	.	.	.	4r	.	4r	.	.	.	.	.
.	.	.	8c/J	.	8cc\J	.	.	.	.	.	.	.	.	.	.	.	.	.
*2\right	*	*	*	*	*	*	*	*	*	*	*	*	*	*	*	*	*	*
2G\	65	.	8d/L	.	8dd\L	.	.	.	.	.	2r	.	2r	.	.	.	.	.
.	.	.	8B/	.	8b\	.	.	.	.	.	.	.	.	.	.	.	.	.
.	.	.	8e/	.	8ee\	.	.	.	.	.	.	.	.	.	.	.	.	.
.	.	.	8d/J	.	8dd\J	.	.	.	.	.	.	.	.	.	.	.	.	.
!	!	!	!	!	!	!	!	!	!	!	!LO:LB:g=original	!	!	!	!	!	!	!
=28	=28	=28	=28	=28	=28	=28	=28	=28	=28	=28	=28	=28	=28	=28	=28	=28	=28	=28
!	!	!	!	!	!	!	!	!	!	!	!	!	!LO:TX:a:t=3	!	!	!	!	!
2A\	3	.	8d/L	.	8dd\L	.	.	.	.	.	0r	.	0r	.	.	.	.	.
.	.	.	8c/J	.	8cc\J	.	.	.	.	.	.	.	.	.	.	.	.	.
.	.	.	4.c/	.	4.cc\	.	.	.	.	.	.	.	.	.	.	.	.	.
2F#X\	65	.	.	.	.	.	.	.	.	.	.	.	.	.	.	.	.	.
.	.	.	8A/L	.	8a\L	.	.	.	.	.	.	.	.	.	.	.	.	.
.	.	.	8d/	.	8dd\	.	.	.	.	.	.	.	.	.	.	.	.	.
!	!	!	!	!	!LO:TX:b:i:t=Verte Subitto	!	!	!	!	!	!	!	!	!	!	!	!	!
.	.	.	8c/J	.	8cc\J	.	.	.	.	.	.	.	.	.	.	.	.	.
!	!	!	!	!	!LO:PB:g=original	!	!	!	!	!	!	!	!	!	!	!	!	!
=29	=29	=29	=29	=29	=29	=29	=29	=29	=29	=29	=29	=29	=29	=29	=29	=29	=29	=29
2G\	.	.	8c/L	.	8cc\L	.	.	.	.	.	.	.	.	.	.	.	.	.
.	.	.	8B/J	.	8b\J	.	.	.	.	.	.	.	.	.	.	.	.	.
.	.	.	4.B/	.	4.b\	.	.	.	.	.	.	.	.	.	.	.	.	.
2B\	6	.	.	.	.	.	.	.	.	.	.	.	.	.	.	.	.	.
.	.	.	8g/L	.	8gg\L	.	.	.	.	.	.	.	.	.	.	.	.	.
.	.	.	8f#X/	.	8ff#X\	.	.	.	.	.	.	.	.	.	.	.	.	.
.	.	.	8fn/J	.	8ffn\J	.	.	.	.	.	.	.	.	.	.	.	.	.
=30	=30	=30	=30	=30	=30	=30	=30	=30	=30	=30	=30	=30	=30	=30	=30	=30	=30	=30
!	!	!	!	!	!	!	!LO:TX:b:i:t=Verte Subitto.	!	!	!	!	!	!	!	!	!	!	!
2c\	6 3	.	8e/L	.	8ee\L	.	1r	.	1r	.	1r	.	1r	.	.	4r	.	4r
.	.	.	8d#X/	.	8dd#X\	.	.	.	.	.	.	.	.	.	.	.	.	.
.	.	.	8e/	.	8ee\	.	.	.	.	.	.	.	.	.	.	4cc\	.	4ee\
.	.	.	8c/J	.	8cc\J	.	.	.	.	.	.	.	.	.	.	.	.	.
!	!	!	!	!	!LO:TX:t=P:problem=mixed beam	!	!	!	!	!	!	!	!	!	!	!	!	!
4d\	.	.	4B/	.	8b\L	.	.	.	.	.	.	.	.	.	.	4dd\	.	4dd\
.	6 4	.	.	.	8dd#\	.	.	.	.	.	.	.	.	.	.	.	.	.
4D\	5 #	.	4c/	.	8f#X/	.	.	.	.	.	.	.	.	.	.	4dd\	.	4dd\
.	.	.	.	.	8a/J	.	.	.	.	.	.	.	.	.	.	.	.	.
!	!	!	!	!	!	!	!LO:PB:g=original	!	!	!	!	!	!	!	!	!	!	!
=31	=31	=31	=31	=31	=31	=31	=31	=31	=31	=31	=31	=31	=31	=31	=31	=31	=31	=31
!LO:TX:a:i:t=tutti	!	!	!	!	!LO:TX:t=P:problem=mixed beam	!	!	!	!	!	!	!	!	!	!	!	!	!
2G\	.	.	8B/L	.	8g/L	.	2G\	te-	2d\	Te-	2b\	Te-	2gg\	Te-	.	4g/	.	4dd\
.	.	.	8g/J	.	8gg\J	.	.	.	.	.	.	.	.	.	.	.	.	.
.	.	.	4.g/	.	4.gg\	.	.	.	.	.	.	.	.	.	.	4r	.	4r
2A\	6\ 3	.	.	.	.	.	4A\	-cum	4d\	-cum	4cc\	-cum	4ff#X\	-cum	.	2r	.	2r
.	.	.	8f#X/L	.	8ff#X\L	.	.	.	.	.	.	.	.	.	.	.	.	.
.	.	.	8e/	.	8ee\	.	4A\	prin-	4d\	prin-	4cc\	prin-	4ff#\	prin-	.	.	.	.
.	.	.	8f#/J	.	8ff#\J	.	.	.	.	.	.	.	.	.	.	.	.	.
!	!	!	!LO:LB:g=original	!	!	!	!	!	!	!	!	!	!	!	!	!	!	!
=32	=32	=32	=32	=32	=32	=32	=32	=32	=32	=32	=32	=32	=32	=32	=32	=32	=32	=32
4.B\	5nr 3	.	8g/L	.	8gg\L	.	2B\	-ci-	2.G/	-ci-	2dd\	-ci-	2ffn\	-ci-	.	4g/	.	4dd\
.	.	.	8fn/J	.	8ffn\J	.	.	.	.	.	.	.	.	.	.	.	.	.
.	.	.	4.f/	.	4.ff\	.	.	.	.	.	.	.	.	.	.	4r	.	4r
16A\LL	_ _	.	.	.	.	.	.	.	.	.	.	.	.	.	.	.	.	.
16B\JJ	.	.	.	.	.	.	.	.	.	.	.	.	.	.	.	.	.	.
4c\	3	.	.	.	.	.	4c\	.	.	.	2cc\	-pi-	4ee\	.	.	2r	.	2r
.	.	.	8e/L	.	8ee\L	.	.	.	.	.	.	.	.	.	.	.	.	.
4A\	6 3	.	8g/	.	8gg\	.	4A\	-pi-	4d\	-pi-	.	.	4ff#X\	-pi-	.	.	.	.
.	.	.	8f#X/J	.	8ff#X\J	.	.	.	.	.	.	.	.	.	.	.	.	.
=33	=33	=33	=33	=33	=33	=33	=33	=33	=33	=33	=33	=33	=33	=33	=33	=33	=33	=33
2G\	8 3	.	8a/L	.	8aa\L	.	4G\	-um	4d\	-um	4b\	-um	4gg\	-um	.	4g/	.	4dd\
.	.	.	8g/J	.	8gg\J	.	.	.	.	.	.	.	.	.	.	.	.	.
.	.	.	4.g/	.	4.gg\	.	4G\	in	4d\	in	4b\	in	4gg\	in	.	4r	.	4r
!LO:TX:b:i:t=Verte Subitto	!	!	!	!	!	!	!	!	!	!	!	!	!	!	!	!	!	!
2A\	6\ 3	.	.	.	.	.	4A\	Di-	4d\	di-	4cc\	Di-	4ff#X\	di-	.	2r	.	2r
.	.	.	8f#X/L	.	8ff#X\L	.	.	.	.	.	.	.	.	.	.	.	.	.
.	.	.	8e/	.	8ee\	.	4A\	-e	4d\	-e	4cc\	-e	4ff#\	-e	.	.	.	.
.	.	.	8f#/J	.	8ff#\J	.	.	.	.	.	.	.	.	.	.	.	.	.
!LO:PB:g=original	!	!	!	!	!	!	!	!	!	!	!	!	!	!	!	!	!	!
=34	=34	=34	=34	=34	=34	=34	=34	=34	=34	=34	=34	=34	=34	=34	=34	=34	=34	=34
4.B\	5nr 3	.	8g/L	.	8gg\L	.	2B\	Vir-	2G/	Vir-	2dd\	Vir-	2ffn\	Vir-	.	4g/	.	4dd\
.	.	.	8fn/J	.	8ffn\J	.	.	.	.	.	.	.	.	.	.	.	.	.
.	.	.	4.f/	.	4.ff\	.	.	.	.	.	.	.	.	.	.	4r	.	4r
16A\LL	_ _	.	.	.	.	.	.	.	.	.	.	.	.	.	.	.	.	.
16B\JJ	.	.	.	.	.	.	.	.	.	.	.	.	.	.	.	.	.	.
4c\	3	.	.	.	.	.	4c\	-tu-	4G/	-tu-	4cc\	-tu-	4ee\	-tu-	.	2r	.	2r
.	.	.	8e/L	.	8ee\L	.	.	.	.	.	.	.	.	.	.	.	.	.
4A\	6\ 3	.	8g/	.	8gg\	.	4A\	-tis	4d\	-tis	4cc\	-tiſ	4ff#X\	-tis	.	.	.	.
.	.	.	8f#X/J	.	8ff#X\J	.	.	.	.	.	.	.	.	.	.	.	.	.
!	!	!	!	!	!LO:LB:g=original	!	!	!	!	!	!	!	!LO:LB:g=original	!	!	!	!	!
=35	=35	=35	=35	=35	=35	=35	=35	=35	=35	=35	=35	=35	=35	=35	=35	=35	=35	=35
!	!	!	!	!	!	!	!	!	!	!	!	!	!	!	!	!	!	!LO:TX:t=P:):problem=jeden wykreślony takt i adnotacja "laybus?" 
4G\	8 3	.	8a/L	.	8aa\L	.	4G\	tu-	4d\	tu-	4b\	tu-	4gg\	tu-	.	4g/	.	4dd\
.	.	.	8g/J	.	8gg\J	.	.	.	.	.	.	.	.	.	.	.	.	.
4G\	_ _	.	4.g/	.	4.gg\	.	4G\	-ae	4d\	-e	4b\	-e	4gg\	-e	.	4r	.	4r
4G#X\	x x	.	.	.	.	.	4G#X\	in	4d\	in	4b\	in	8gg\L	in	.	2r	.	2r
.	.	.	8fn/L	.	8ffn\L	.	.	.	.	.	.	.	8ff\J	.	.	.	.	.
4G#\	65	.	8e/	.	8ee\	.	4G#\	Splen-	4d\	Splen-	4b\	Splen-	8ee\L	Splen-	.	.	.	.
.	.	.	8d/J	.	8dd\J	.	.	.	.	.	.	.	8dd\J	.	.	.	.	.
!	!	!	!	!	!	!	!	!	!LO:LB:g=original	!	!LO:LB:g=original	!	!	!	!	!	!	!
=36	=36	=36	=36	=36	=36	=36	=36	=36	=36	=36	=36	=36	=36	=36	=36	=36	=36	=36
4A\	7	.	8d/L	.	8dd\L	.	4.A\	-do-	4.e\	-do-	4.a\	-do-	4.cc\	-do-	.	0r	.	0r
.	.	.	8c/J	.	8cc\J	.	.	.	.	.	.	.	.	.	.	.	.	.
4A\	_	.	4.c/	.	4.cc\	.	.	.	.	.	.	.	.	.	.	.	.	.
.	.	.	.	.	.	.	8A\	-ri-	8e\	-ri-	8a\	-ri-	8cc\	-ri-	.	.	.	.
4Gn\	4#r 2	.	.	.	.	.	4Gn\	-buſ	4e\	-bus	4a\	-buſ	4cc#X\	-buſ	.	.	.	.
.	.	.	8A/L	.	8a\L	.	.	.	.	.	.	.	.	.	.	.	.	.
4G\	_ _	.	8B/	.	8b\	.	4G\	San-	4e\	San-	4a\	San-	4cc#\	San-	.	.	.	.
.	.	.	8c#X/J	.	8cc#X\J	.	.	.	.	.	.	.	.	.	.	.	.	.
!	!	!	!	!	!	!	!LO:LB:g=original	!	!	!	!	!	!	!	!	!	!	!
=37	=37	=37	=37	=37	=37	=37	=37	=37	=37	=37	=37	=37	=37	=37	=37	=37	=37	=37
4F#X\	6_	.	8c#y/L	.	8cc#X\L	.	2F#X\	-cto-	2d\	-cto-	2a\	-cto-	2dd\	-cto-	.	.	.	.
.	.	.	8d/J	.	8dd\J	.	.	.	.	.	.	.	.	.	.	.	.	.
4F#\	x	.	4.d/	.	4.dd\	.	.	.	.	.	.	.	.	.	.	.	.	.
4F#\	6 5	.	.	.	.	.	4F#\	-rum	4d\	-rum	4a\	-rum	4dd\	-rum	.	.	.	.
.	.	.	8e/L	.	8ee\L	.	.	.	.	.	.	.	.	.	.	.	.	.
4F#\	4 2	.	8d/	.	8dd\	.	4F#\	ex	4d\	ex	4a\	ex	4ccn\	ex	.	.	.	.
!	!	!	!LO:TX:b:t=P:problem=♮ below	!	!	!	!	!	!	!	!	!	!	!	!	!	!	!
.	.	.	8cn/J	.	8ccn\J	.	.	.	.	.	.	.	.	.	.	.	.	.
!	!	!	!LO:LB:g=original	!	!	!	!	!	!	!	!	!	!	!	!	!LO:LB:g=original	!	!LO:LB:g=original
=38	=38	=38	=38	=38	=38	=38	=38	=38	=38	=38	=38	=38	=38	=38	=38	=38	=38	=38
4G\	7	.	8c/L	.	8cc\L	.	4.G\	u-	4.d\	u-	4.g\	u-	4.b\	u-	.	4r	.	4r
.	.	.	8B/J	.	8b\J	.	.	.	.	.	.	.	.	.	.	.	.	.
4G\	.	.	4.B/	.	4.b\	.	.	.	.	.	.	.	.	.	.	4g/	.	4dd\
.	.	.	.	.	.	.	8G\	-te-	8d\	-te-	8g\	-te-	8b\	-te-	.	.	.	.
4Fn\	_	.	.	.	.	.	2Fn\	-ro	2d\	-ro	2g\	-ro	2b\	-ro	.	4g/	.	4dd\
.	.	.	8G/L	.	8g/L	.	.	.	.	.	.	.	.	.	.	.	.	.
4F\	x	.	8A/	.	8a/	.	.	.	.	.	.	.	.	.	.	4g/	.	4dd\
.	.	.	8B/J	.	8b/J	.	.	.	.	.	.	.	.	.	.	.	.	.
=39	=39	=39	=39	=39	=39	=39	=39	=39	=39	=39	=39	=39	=39	=39	=39	=39	=39	=39
4E\	6	.	8B/L	.	8b\L	.	2E\	an-	2e\	an-	2g\	an-	2cc\	an-	.	4cc\	.	4ee\
.	.	.	8c/J	.	8cc\J	.	.	.	.	.	.	.	.	.	.	.	.	.
4E\	_	.	4.c/	.	4.cc\	.	.	.	.	.	.	.	.	.	.	4cc\	.	4ee\
4F#X\	6 5	.	.	.	.	.	4F#X\	-te	4d\	-te	4a\	-te	4cc\	-te	.	4dd\	.	4dd\
.	.	.	8A/L	.	8a\L	.	.	.	.	.	.	.	.	.	.	.	.	.
4F#\	_ _	.	8d/	.	8dd\	.	4F#\	lu-	4d\	lu-	4a\	lu-	4cc\	lu-	.	4dd\	.	4dd\
.	.	.	8c/J	.	8cc\J	.	.	.	.	.	.	.	.	.	.	.	.	.
!	!	!	!	!	!	!	!	!	!	!	!	!	!LO:LB:g=original	!	!	!	!	!
=40	=40	=40	=40	=40	=40	=40	=40	=40	=40	=40	=40	=40	=40	=40	=40	=40	=40	=40
*	*	*	*	*	*	*	*	*	*	*	*	*	*	*	*	*	*	*2\right
4.G\	1	.	8B/L	.	8b\L	.	4.G\	-ci-	4.d\	-ci-	4.b\	-ci-	4b\	-ci-	.	4dd\	.	2dd\
.	.	.	8d/	.	8dd\	.	.	.	.	.	.	.	.	.	.	.	.	.
.	.	.	8g/	.	8gg\	.	.	.	.	.	.	.	8gg\L	-fe-	.	4dd\	.	.
8A\	6\ 3	.	8f#X/J	.	8ff#X\J	.	8A\	-fe-	8d\	-fe-	8cc\	-fe-	8ff#X\J	.	.	.	.	.
4B\	.	.	8a/L	.	8aa\L	.	4B\	-rum	4d\	-rum	4dd\	-rum	4gg\	-rum	.	4dd\	.	2dd\
.	6	.	8g/	.	8gg\	.	.	.	.	.	.	.	.	.	.	.	.	.
!	!	!	!	!	!	!	!	!	!LO:TX:b:i:t=Verte Subitto.	!	!	!	!	!	!	!	!	!
4B\	_	.	8f#/	.	8ff#\	.	4B\	ge-	4d\	ge-	4dd\	ge-	4gg\	ge-	.	4g/	.	.
.	.	.	8g/J	.	8gg\J	.	.	.	.	.	.	.	.	.	.	.	.	.
!LO:LB:g=original	!	!	!	!	!LO:LB:g=original	!	!	!	!LO:PB:g=original	!	!LO:LB:g=original	!	!	!	!	!	!	!
=41	=41	=41	=41	=41	=41	=41	=41	=41	=41	=41	=41	=41	=41	=41	=41	=41	=41	=41
*	*	*	*	*	*	*	*	*	*	*	*	*	*	*	*	*2\right	*	*
4c\	6	.	4e/	.	8ff\L	.	2c\	-nu-	2e\	-nu-	2cc\	.	2aa\	-nu-	.	2cc\	.	2ee\
.	.	.	.	.	8ee\	.	.	.	.	.	.	.	.	.	.	.	.	.
4c\	_	.	4e/	.	8aa\	.	.	.	.	.	.	.	.	.	.	.	.	.
.	.	.	.	.	8gg\J	.	.	.	.	.	.	.	.	.	.	.	.	.
4d\	4	.	4d/	.	8b\L	.	4d\	-i-	2d\	-i	4b\	-nu-	4gg\	.	.	4dd\	.	4dd\
.	.	.	.	.	8gg\	.	.	.	.	.	.	.	.	.	.	.	.	.
4D\	#	.	4c/	.	8a\	.	4D\	.	.	.	4a\	-i	4ff#X\	-i	.	4dd\	.	4dd\
.	.	.	.	.	8ff#X\J	.	.	.	.	.	.	.	.	.	.	.	.	.
=42	=42	=42	=42	=42	=42	=42	=42	=42	=42	=42	=42	=42	=42	=42	=42	=42	=42	=42
4G\	.	.	4B/	.	4gg\	.	4G\	-te	4d\	te	4b\	te	4gg\	te	.	4g/	.	4dd\
4GG/	.	.	16b\LL	.	16gg\LL	.	4r	.	4r	.	4r	.	4r	.	.	4g/	.	4dd\
.	.	.	16cc\	.	16aa\	.	.	.	.	.	.	.	.	.	.	.	.	.
.	.	.	16dd\	.	16bb\	.	.	.	.	.	.	.	.	.	.	.	.	.
.	.	.	16cc\JJ	.	16aa\JJ	.	.	.	.	.	.	.	.	.	.	.	.	.
!LO:TX:a:i:t=Solo	!	!	!	!	!	!	!	!	!	!	!	!	!	!	!	!	!	!
4G\	.	.	4b\	.	4gg\	.	4r	.	2r	.	2r	.	2r	.	.	4g/	.	4dd\
4r	.	.	4r	.	4r	.	8r	.	.	.	.	.	.	.	.	4r	.	4r
!	!	!	!	!	!	!	!LO:TX:a:i:t=Solo:rj	!	!	!	!	!	!	!	!	!	!	!
.	.	.	.	.	.	.	8G\	Ju-	.	.	.	.	.	.	.	.	.	.
!	!	!	!	!	!	!	!LO:LB:g=original	!	!	!	!	!	!	!	!	!	!	!
=43	=43	=43	=43	=43	=43	=43	=43	=43	=43	=43	=43	=43	=43	=43	=43	=43	=43	=43
!	!	!LO:DY:a:t=pia	!	!	!	!	!	!	!	!	!LO:TX:t=P:problem=błędnie cyfra 3 nad pauzami	!	!	!	!	!	!	!
!	!	!	!	!	!	!	!	!	!	!	!	!	!LO:TX:a:t=7	!	!	!	!	!
4G\	.	p	8r	.	8r	.	4.d\	-ra-	00r	.	00r	.	00r	.	.	00r	.	00r
.	.	.	8g/L	.	8b\L	.	.	.	.	.	.	.	.	.	.	.	.	.
4r	.	.	8b/	.	8dd\	.	.	.	.	.	.	.	.	.	.	.	.	.
.	.	.	8g/J	.	8b\J	.	8B\	.	.	.	.	.	.	.	.	.	.	.
2r	.	.	8b/L	.	8dd\L	.	4G\	-vit	.	.	.	.	.	.	.	.	.	.
.	.	.	8g/	.	8b\	.	.	.	.	.	.	.	.	.	.	.	.	.
.	.	.	8b/	.	8dd\	.	8r	.	.	.	.	.	.	.	.	.	.	.
*	*	*	*	*	*	*	*	*ij	*	*	*	*	*	*	*	*	*	*
.	.	.	8g/J	.	8b\J	.	8G\	Ju-	.	.	.	.	.	.	.	.	.	.
!	!	!	!LO:LB:g=original	!	!	!	!	!	!	!	!	!	!	!	!	!	!	!
=44	=44	=44	=44	=44	=44	=44	=44	=44	=44	=44	=44	=44	=44	=44	=44	=44	=44	=44
4F#X\	6 5	.	8r	.	8r	.	(4.d\	-ra-	.	.	.	.	.	.	.	.	.	.
.	.	.	8a/L	.	8cc\L	.	.	.	.	.	.	.	.	.	.	.	.	.
4r	.	.	8f#X/	.	8dd\	.	.	.	.	.	.	.	.	.	.	.	.	.
.	.	.	8a/J	.	8cc\J	.	8c\)	.	.	.	.	.	.	.	.	.	.	.
2r	.	.	8f#/L	.	8dd\L	.	4A\	-vit	.	.	.	.	.	.	.	.	.	.
*	*	*	*	*	*	*	*	*Xij	*	*	*	*	*	*	*	*	*	*
.	.	.	8a/	.	8cc\	.	.	.	.	.	.	.	.	.	.	.	.	.
.	.	.	8f#/	.	8dd\	.	8r	.	.	.	.	.	.	.	.	.	.	.
.	.	.	8a/J	.	8cc\J	.	8A\	Ju-	.	.	.	.	.	.	.	.	.	.
=45	=45	=45	=45	=45	=45	=45	=45	=45	=45	=45	=45	=45	=45	=45	=45	=45	=45	=45
4G\	.	.	8r	.	8r	.	4.B\	-ra-	.	.	.	.	.	.	.	.	.	.
.	.	.	8g/L	.	8b\L	.	.	.	.	.	.	.	.	.	.	.	.	.
4BB/	6	.	8b/	.	8dd\	.	.	.	.	.	.	.	.	.	.	.	.	.
.	.	.	8g/J	.	8b\J	.	8G\	-vit	.	.	.	.	.	.	.	.	.	.
4C/	6	.	8a/L	.	8cc\L	.	8c\L	Do-	.	.	.	.	.	.	.	.	.	.
.	.	.	8cc/	.	8ee\	.	8A\J	.	.	.	.	.	.	.	.	.	.	.
4D/	#	.	8f#X/	.	8a\	.	8G\L	-mi-	.	.	.	.	.	.	.	.	.	.
.	.	.	8a/J	.	8cc\J	.	8F#X\J	.	.	.	.	.	.	.	.	.	.	.
=46	=46	=46	=46	=46	=46	=46	=46	=46	=46	=46	=46	=46	=46	=46	=46	=46	=46	=46
4G\	.	.	4g/	.	4b\	.	4G\	-nuſ	.	.	.	.	.	.	.	.	.	.
(<16GG/LL	.	.	16G/LL	.	16G/LL	.	4r	.	.	.	.	.	.	.	.	.	.	.
16AA/	.	.	16A/	.	16A/	.	.	.	.	.	.	.	.	.	.	.	.	.
16BB/	.	.	16B/	.	16B/	.	.	.	.	.	.	.	.	.	.	.	.	.
16C/JJ	.	.	16c/JJ	.	16c/JJ	.	.	.	.	.	.	.	.	.	.	.	.	.
4D\)	.	.	4d/	.	4d/	.	4r	.	.	.	.	.	.	.	.	.	.	.
4r	.	.	4r	.	4r	.	8d\L	e(t)	.	.	.	.	.	.	.	.	.	.
.	.	.	.	.	.	.	8c\J	.	.	.	.	.	.	.	.	.	.	.
!	!	!	!	!	!LO:LB:g=original	!	!	!	!	!	!	!	!	!	!	!	!	!
=47	=47	=47	=47	=47	=47	=47	=47	=47	=47	=47	=47	=47	=47	=47	=47	=47	=47	=47
4r	.	.	4r	.	4r	.	4B\	non	00r	.	0r	.	0r	.	.	00r	.	00r
(<16GG/LL	.	.	16G/LL	.	16G/LL	.	4r	.	.	.	.	.	.	.	.	.	.	.
16AA/	.	.	16A/	.	16A/	.	.	.	.	.	.	.	.	.	.	.	.	.
16BB/	.	.	16B/	.	16B/	.	.	.	.	.	.	.	.	.	.	.	.	.
16C/JJ	.	.	16c/JJ	.	16c/JJ	.	.	.	.	.	.	.	.	.	.	.	.	.
4D\)	.	.	4d/	.	4d/	.	4r	.	.	.	.	.	.	.	.	.	.	.
4r	.	.	4r	.	4r	.	8d\L	e(t)	.	.	.	.	.	.	.	.	.	.
.	.	.	.	.	.	.	8c\J	.	.	.	.	.	.	.	.	.	.	.
!	!	!	!	!	!	!	!LO:LB:g=original	!	!	!	!	!	!	!	!	!	!	!
=48	=48	=48	=48	=48	=48	=48	=48	=48	=48	=48	=48	=48	=48	=48	=48	=48	=48	=48
4r	.	.	4r	.	4r	.	4B\	non	.	.	.	.	.	.	.	.	.	.
(<16GG/LL	.	.	16G/LL	.	16G/LL	.	4r	.	.	.	.	.	.	.	.	.	.	.
16AA/	.	.	16A/	.	16A/	.	.	.	.	.	.	.	.	.	.	.	.	.
16BB/	.	.	16B/	.	16B/	.	.	.	.	.	.	.	.	.	.	.	.	.
16C/JJ	.	.	16c/JJ	.	16c/JJ	.	.	.	.	.	.	.	.	.	.	.	.	.
4D\)	.	.	4d/	.	4d/	.	4r	.	.	.	.	.	.	.	.	.	.	.
4F#X\	6 5	.	4a/	.	4dd\	.	8d\L	non	.	.	.	.	.	.	.	.	.	.
.	.	.	.	.	.	.	8c\J	.	.	.	.	.	.	.	.	.	.	.
!LO:LB:g=original	!	!	!LO:LB:g=original	!	!	!	!	!	!	!	!	!	!	!	!	!	!	!
=49	=49	=49	=49	=49	=49	=49	=49	=49	=49	=49	=49	=49	=49	=49	=49	=49	=49	=49
4G\	.	.	4g/	.	4.dd\	.	4.B\	pe-	.	.	1r	.	1r	.	.	.	.	.
4B\	6	.	4d/	.	.	.	.	.	.	.	.	.	.	.	.	.	.	.
.	.	.	.	.	8b\	.	8G\	-ni-	.	.	.	.	.	.	.	.	.	.
4c\	6	.	4e/	.	8ee\L	.	8c\L	-te-	.	.	.	.	.	.	.	.	.	.
.	.	.	.	.	8cc\	.	8A\J	.	.	.	.	.	.	.	.	.	.	.
4d\	#	.	4d/	.	8b\	.	8G\L	-bit	.	.	.	.	.	.	.	.	.	.
.	.	.	.	.	8a\J	.	8F#X\J	.	.	.	.	.	.	.	.	.	.	.
=50	=50	=50	=50	=50	=50	=50	=50	=50	=50	=50	=50	=50	=50	=50	=50	=50	=50	=50
!	!	!	!	!	!	!	!	!	!	!	!LO:TX:a:i:t=Solo	!	!LO:TX:a:i:t=Solo	!	!	!	!	!
4G\	.	.	4d/	.	4b\	.	4G\	e-	.	.	4r	.	4r	.	.	.	.	.
4r	.	.	4g/	.	4b\	.	4GG/	-um	.	.	4g\	tu	4b\	tu	.	.	.	.
2r	.	.	4a/	.	4cc\	.	2r	.	.	.	4a\	es	4cc\	es	.	.	.	.
.	.	.	4b\	.	4dd\	.	.	.	.	.	4b\	sa-	4dd\	Sa-	.	.	.	.
=51	=51	=51	=51	=51	=51	=51	=51	=51	=51	=51	=51	=51	=51	=51	=51	=51	=51	=51
8G\L	6 4	.	1cc	.	1ee	.	8G\L	in-	00r	.	1cc	-cer-	1ee	-cer-	.	00r	.	00r
8F#X\	_ _	.	.	.	.	.	8F#X\	.	.	.	.	.	.	.	.	.	.	.
8G\	.	.	.	.	.	.	8G\	.	.	.	.	.	.	.	.	.	.	.
8F#\J	.	.	.	.	.	.	8F#\J	.	.	.	.	.	.	.	.	.	.	.
8G\L	.	.	.	.	.	.	8G\L	-ae-	.	.	.	.	.	.	.	.	.	.
8F#\	.	.	.	.	.	.	8F#\J	.	.	.	.	.	.	.	.	.	.	.
8G\	.	.	.	.	.	.	8G\L	-ter-	.	.	.	.	.	.	.	.	.	.
8F#\J	.	.	.	.	.	.	8F#\J	.	.	.	.	.	.	.	.	.	.	.
=52	=52	=52	=52	=52	=52	=52	=52	=52	=52	=52	=52	=52	=52	=52	=52	=52	=52	=52
4G\	5 3	.	4b\	.	4dd\	.	4G\	-num	.	.	4b\	-doſ	4dd\	-doſ	.	.	.	.
*	*	*	*	*	*	*	*	*	*	*	*	*ij	*	*ij	*	*	*	*
4r	.	.	8a/L	.	8cc\L	.	4r	.	.	.	8a\L	tu	8cc\L	tu	.	.	.	.
.	.	.	8g/J	.	8b\J	.	.	.	.	.	8g\J	.	8b\J	.	.	.	.	.
2r	.	.	8f#X/L	.	8a\L	.	2r	.	.	.	8f#X\L	es	8a\L	es	.	.	.	.
.	.	.	8g/	.	8b\	.	.	.	.	.	8g\J	.	8b\J	.	.	.	.	.
.	.	.	8a/	.	8cc\	.	.	.	.	.	8a\L	sa-	8cc\L	Sa-	.	.	.	.
.	.	.	8b/J	.	8dd\J	.	.	.	.	.	8b\J	.	8dd\J	.	.	.	.	.
!	!	!	!	!	!	!	!LO:LB:g=original	!	!	!	!	!	!LO:LB:g=original	!	!	!	!	!
=53	=53	=53	=53	=53	=53	=53	=53	=53	=53	=53	=53	=53	=53	=53	=53	=53	=53	=53
8G\L	6 4	.	1cc	.	1ee	.	8G\L	in	.	.	1cc	-cer-	1ee	-cer-	.	.	.	.
8F#X\	_ _	.	.	.	.	.	8F#X\J	.	.	.	.	.	.	.	.	.	.	.
8G\	.	.	.	.	.	.	8G\L	ae-	.	.	.	.	.	.	.	.	.	.
8F#\J	.	.	.	.	.	.	8F#\J	.	.	.	.	.	.	.	.	.	.	.
8G\L	.	.	.	.	.	.	8G\L	-ter-	.	.	.	.	.	.	.	.	.	.
8F#\	.	.	.	.	.	.	8F#\	.	.	.	.	.	.	.	.	.	.	.
8G\	.	.	.	.	.	.	8G\	.	.	.	.	.	.	.	.	.	.	.
8F#\J	.	.	.	.	.	.	8F#\J	.	.	.	.	.	.	.	.	.	.	.
!	!	!	!	!	!	!	!	!	!	!	!LO:LB:g=original	!	!	!	!	!	!	!
=54	=54	=54	=54	=54	=54	=54	=54	=54	=54	=54	=54	=54	=54	=54	=54	=54	=54	=54
4G\	5 3	.	4b\	.	4dd\	.	4G\	-num	.	.	4b\	-doſ	4dd\	-dos	.	.	.	.
*	*	*	*	*	*	*	*	*	*	*	*	*Xij	*	*Xij	*	*	*	*
4r	.	.	4b\	.	4dd\	.	4r	.	.	.	4b\	Se-	4dd\	Se-	.	.	.	.
2r	.	.	4cc\	.	4ee\	.	2r	.	.	.	4cc\	-cun-	4ee\	-cun-	.	.	.	.
.	.	.	4a\	.	4ff#X\	.	.	.	.	.	4a\	-dum	4ff#X\	-dum	.	.	.	.
!	!	!	!	!	!LO:LB:g=original	!	!	!	!	!	!	!	!	!	!	!	!	!
=55	=55	=55	=55	=55	=55	=55	=55	=55	=55	=55	=55	=55	=55	=55	=55	=55	=55	=55
4r	.	.	4.b\	.	4.gg\	.	4r	.	0r	.	2b\	or-	2gg\	or-	.	00r	.	00r
4G\	8 1	.	.	.	.	.	4G\	Se-	.	.	.	.	.	.	.	.	.	.
.	.	.	16a\LL	.	16aa\LL	.	.	.	.	.	.	.	.	.	.	.	.	.
.	.	.	16b\JJ	.	16gg\JJ	.	.	.	.	.	.	.	.	.	.	.	.	.
4A\	6 3	.	4cc\	.	4ff#X\	.	4A\	-cun-	.	.	4cc\	.	4ff#X\	.	.	.	.	.
4B\	5 3	.	4dd\	.	4ffn\	.	4B\	.	.	.	4dd\	.	4ffn\	.	.	.	.	.
=56	=56	=56	=56	=56	=56	=56	=56	=56	=56	=56	=56	=56	=56	=56	=56	=56	=56	=56
4c\	.	.	4cc\	.	4ee\	.	4c\	-dum	.	.	2cc\	.	4ee\	.	.	.	.	.
8B\L	6\ 3	.	8dd\L	.	4ff#X\	.	8B\L	or-	.	.	.	.	4ff#X\	.	.	.	.	.
8A\J	.	.	8cc\J	.	.	.	8A\J	.	.	.	.	.	.	.	.	.	.	.
4G\	1	.	4b\	.	8aa\L	.	4G\	-di-	.	.	4b\	.	8aa\L	.	.	.	.	.
.	.	.	.	.	8gg\	.	.	.	.	.	.	.	8gg\J	.	.	.	.	.
4B\	6 3	.	4dd\	.	8ff#\	.	4B\	.	.	.	4dd\	-di-	8ff#\L	-di-	.	.	.	.
.	.	.	.	.	8gg\J	.	.	.	.	.	.	.	8gg\J	.	.	.	.	.
=57	=57	=57	=57	=57	=57	=57	=57	=57	=57	=57	=57	=57	=57	=57	=57	=57	=57	=57
4c\	6	.	8cc\L	.	8ee\L	.	4c\	-nem	1r	.	8cc\L	-nem	8ee\L	-nem	.	.	.	.
.	.	.	8b\	.	8dd\	.	.	.	.	.	8b\J	.	8dd#X\J	.	.	.	.	.
4c\	_	.	8cc\	.	8ee\	.	4c\	mel-	.	.	8cc\L	Mel-	8ee\L	mel-	.	.	.	.
.	.	.	8a\J	.	8cc\J	.	.	.	.	.	8a\J	.	8cc\J	.	.	.	.	.
!	!	!	!LO:LB:g=original	!	!	!	!	!	!	!	!	!	!	!	!	!	!	!
=-	=-	=-	=-	=-	=-	=-	=-	=-	=-	=-	=-	=-	=-	=-	=-	=-	=-	=-
4d\	6 4	.	8a/L	.	8cc\L	.	4d\	-chi-	.	.	8a\L	-chi-	8cc\L	-chi-	.	.	.	.
.	.	.	8g/	.	8b\	.	.	.	.	.	8g\J	.	8b\J	.	.	.	.	.
4D\	5 #	.	8g/	.	8b\	.	4D\	-ſe-	.	.	8g\L	-ſe-	8b\L	-ſe-	.	.	.	.
.	.	.	8f#X/J	.	8a\J	.	.	.	.	.	8f#X\J	.	8a\J	.	.	.	.	.
!LO:LB:g=original	!	!	!	!	!	!	!	!	!	!	!	!	!LO:LB:g=original	!	!	!	!	!
=58	=58	=58	=58	=58	=58	=58	=58	=58	=58	=58	=58	=58	=58	=58	=58	=58	=58	=58
4G\	.	.	4g/	.	4b\	.	4G\	-dech	2r	.	2g\	-dech	2b\	-dech	.	.	.	.
4G\	.	.	4d/	.	4b\	.	4r	.	.	.	.	.	.	.	.	.	.	.
!	!	!	!	!	!	!	!	!	!LO:TX:a:i:t=Solo&colon;:rj	!	!	!	!	!	!	!	!	!
2r	.	.	2r	.	8g/L	.	2r	.	8B\L	Do-	2r	.	2r	.	.	.	.	.
.	.	.	.	.	8a/	.	.	.	8c\J	.	.	.	.	.	.	.	.	.
.	.	.	.	.	8a#X/	.	.	.	8c#X\L	-mi-	.	.	.	.	.	.	.	.
.	.	.	.	.	8b/J	.	.	.	8d\J	.	.	.	.	.	.	.	.	.
!	!	!	!	!	!	!	!LO:LB:g=original	!	!	!	!	!	!	!	!	!	!	!
=59	=59	=59	=59	=59	=59	=59	=59	=59	=59	=59	=59	=59	=59	=59	=59	=59	=59	=59
!	!	!	!	!	!	!	!	!	!	!	!LO:TX:a:t=21.	!	!	!	!	!	!	!
4r	.	.	4r	.	2.b/	.	00r	.	2.d\	-nus	00r	.	00r	.	.	00r	.	00r
4G#X\	6 5	.	4e/	.	.	.	.	.	.	.	.	.	.	.	.	.	.	.
4G#\	_ _	.	4e/	.	.	.	.	.	.	.	.	.	.	.	.	.	.	.
4G#\	.	.	4e/	.	4b/	.	.	.	8e\L	a	.	.	.	.	.	.	.	.
.	.	.	.	.	.	.	.	.	8B\J	.	.	.	.	.	.	.	.	.
=60	=60	=60	=60	=60	=60	=60	=60	=60	=60	=60	=60	=60	=60	=60	=60	=60	=60	=60
4A\	1	.	4e/	.	8b/L	.	.	.	8d\L	dex-	.	.	.	.	.	.	.	.
.	.	.	.	.	8an/J	.	.	.	8c\J	.	.	.	.	.	.	.	.	.
4AA/	.	.	4e/	.	4a/	.	.	.	4c\	-tris	.	.	.	.	.	.	.	.
2r	.	.	2r	.	8f#X/L	.	.	.	8A\L	Do-	.	.	.	.	.	.	.	.
.	.	.	.	.	8g/	.	.	.	8B\J	.	.	.	.	.	.	.	.	.
.	.	.	.	.	8g#X/	.	.	.	8B\L	-mi-	.	.	.	.	.	.	.	.
.	.	.	.	.	8a/J	.	.	.	8c\J	.	.	.	.	.	.	.	.	.
!	!	!	!	!	!	!	!	!	!LO:LB:g=original	!	!	!	!	!	!	!	!	!
=61	=61	=61	=61	=61	=61	=61	=61	=61	=61	=61	=61	=61	=61	=61	=61	=61	=61	=61
4r	.	.	4r	.	2.a/	.	.	.	2.c\	-nus	.	.	.	.	.	.	.	.
4F#X\	6 5	.	4d/	.	.	.	.	.	.	.	.	.	.	.	.	.	.	.
4F#\	_ _	.	4d/	.	.	.	.	.	.	.	.	.	.	.	.	.	.	.
4F#\	.	.	4d/	.	4a/	.	.	.	8d\L	a	.	.	.	.	.	.	.	.
.	.	.	.	.	.	.	.	.	8A\J	.	.	.	.	.	.	.	.	.
!	!	!	!	!	!LO:LB:g=original	!	!	!	!	!	!	!	!	!	!	!	!	!
=62	=62	=62	=62	=62	=62	=62	=62	=62	=62	=62	=62	=62	=62	=62	=62	=62	=62	=62
4G\	1	.	4d/	.	8a/L	.	.	.	8c\L	dex-	.	.	.	.	.	.	.	.
.	.	.	.	.	8g/J	.	.	.	8B\J	.	.	.	.	.	.	.	.	.
4GG/	.	.	4d/	.	4g/	.	.	.	4B\	-tris	.	.	.	.	.	.	.	.
*	*	*	*	*	*	*	*	*	*	*ij	*	*	*	*	*	*	*	*
2r	.	.	2r	.	8g/L	.	.	.	8B\L	Do-	.	.	.	.	.	.	.	.
.	.	.	.	.	8a/	.	.	.	8c\J	.	.	.	.	.	.	.	.	.
.	.	.	.	.	8a#X/	.	.	.	8c#X\L	-mi-	.	.	.	.	.	.	.	.
.	.	.	.	.	8b/J	.	.	.	8d\J	.	.	.	.	.	.	.	.	.
=63	=63	=63	=63	=63	=63	=63	=63	=63	=63	=63	=63	=63	=63	=63	=63	=63	=63	=63
4r	.	.	4r	.	2.b/	.	00r	.	2.d\	-nus	00r	.	00r	.	.	00r	.	00r
8G\L	.	.	4d/	.	.	.	.	.	.	.	.	.	.	.	.	.	.	.
8F#X\J	.	.	.	.	.	.	.	.	.	.	.	.	.	.	.	.	.	.
4G\	.	.	4d/	.	.	.	.	.	.	.	.	.	.	.	.	.	.	.
4G#X\	6 5	.	4e/	.	4b/	.	.	.	8e\L	a	.	.	.	.	.	.	.	.
.	.	.	.	.	.	.	.	.	8d\J	.	.	.	.	.	.	.	.	.
=64	=64	=64	=64	=64	=64	=64	=64	=64	=64	=64	=64	=64	=64	=64	=64	=64	=64	=64
2A\	1	.	4e/	.	4an/	.	.	.	8d\L	dex-	.	.	.	.	.	.	.	.
.	.	.	.	.	.	.	.	.	8cn\J	.	.	.	.	.	.	.	.	.
.	.	.	2e/	.	2a/	.	.	.	4c\	-tris	.	.	.	.	.	.	.	.
*	*	*	*	*	*	*	*	*	*	*Xij	*	*	*	*	*	*	*	*
2Gn\	4#r 2	.	.	.	.	.	.	.	2c#X\	a	.	.	.	.	.	.	.	.
.	.	.	4e/	.	4a/	.	.	.	.	.	.	.	.	.	.	.	.	.
=65	=65	=65	=65	=65	=65	=65	=65	=65	=65	=65	=65	=65	=65	=65	=65	=65	=65	=65
2F#X\	6 3	.	4B/	.	4a/	.	.	.	2d\	dex-	.	.	.	.	.	.	.	.
.	.	.	2B/	.	2a/	.	.	.	.	.	.	.	.	.	.	.	.	.
2Fn\	6\ _	.	.	.	.	.	.	.	2c#X\	-tris	.	.	.	.	.	.	.	.
.	.	.	4B/	.	4a/	.	.	.	.	.	.	.	.	.	.	.	.	.
!	!	!	!LO:LB:g=original	!	!	!	!	!	!	!	!	!	!	!	!	!	!	!
=66	=66	=66	=66	=66	=66	=66	=66	=66	=66	=66	=66	=66	=66	=66	=66	=66	=66	=66
!	!	!	!LO:TX:t=P:problem=mixed beam	!	!	!	!	!	!	!	!	!	!	!	!	!	!	!
8E\L	#	.	8B/L	.	8g#X\L	.	.	.	8d#X\L	tu-	.	.	.	.	.	.	.	.
8e\	.	.	8ee\	.	8ee\	.	.	.	8e\J	.	.	.	.	.	.	.	.	.
8e\	.	.	8ee\	.	8ee\	.	.	.	4e\	-is	.	.	.	.	.	.	.	.
8e\J	.	.	8ee\J	.	8ee\J	.	.	.	.	.	.	.	.	.	.	.	.	.
!LO:LB:g=original	!	!	!	!	!	!	!	!	!	!	!	!	!	!	!	!	!	!
=-	=-	=-	=-	=-	=-	=-	=-	=-	=-	=-	=-	=-	=-	=-	=-	=-	=-	=-
8e\L	.	.	8ee\L	.	8ee\L	.	.	.	2r	.	.	.	.	.	.	.	.	.
16d#X\L	.	.	16dd#X\L	.	16dd#X\L	.	.	.	.	.	.	.	.	.	.	.	.	.
16c\JJ	.	.	16cc\JJ	.	16cc\JJ	.	.	.	.	.	.	.	.	.	.	.	.	.
16B\LL	.	.	16b\LL	.	16b/LL	.	.	.	.	.	.	.	.	.	.	.	.	.
16A\	.	.	16a\	.	16a/	.	.	.	.	.	.	.	.	.	.	.	.	.
16G#X\	.	.	16g#X\	.	16g#/	.	.	.	.	.	.	.	.	.	.	.	.	.
16F#X\JJ	.	.	16f#X\JJ	.	16f/JJ	.	.	.	.	.	.	.	.	.	.	.	.	.
!	!	!	!	!	!	!	!	!	!LO:LB:g=original	!	!	!	!	!	!	!	!	!
=67	=67	=67	=67	=67	=67	=67	=67	=67	=67	=67	=67	=67	=67	=67	=67	=67	=67	=67
4E\	.	.	4e/	.	4e/	.	00r	.	4r	.	00r	.	00r	.	.	00r	.	00r
4E\	.	.	4e/	.	4e/	.	.	.	4e\	Co-	.	.	.	.	.	.	.	.
2r	.	.	2r	.	2r	.	.	.	8e\L	-fri-	.	.	.	.	.	.	.	.
.	.	.	.	.	.	.	.	.	8dn\J	.	.	.	.	.	.	.	.	.
.	.	.	.	.	.	.	.	.	8c\	-git	.	.	.	.	.	.	.	.
.	.	.	.	.	.	.	.	.	8B\	in	.	.	.	.	.	.	.	.
=68	=68	=68	=68	=68	=68	=68	=68	=68	=68	=68	=68	=68	=68	=68	=68	=68	=68	=68
8r	.	.	8r	.	8r	.	.	.	8d\L	di-	.	.	.	.	.	.	.	.
8A\L	.	.	8a/L	.	8a/L	.	.	.	8c\J	.	.	.	.	.	.	.	.	.
8A\	.	.	8a/	.	8a/	.	.	.	4c\	-e	.	.	.	.	.	.	.	.
8A\J	.	.	8a/J	.	8a/J	.	.	.	.	.	.	.	.	.	.	.	.	.
=-	=-	=-	=-	=-	=-	=-	=-	=-	=-	=-	=-	=-	=-	=-	=-	=-	=-	=-
8A\L	.	.	8a/L	.	8a/L	.	.	.	2r	.	.	.	.	.	.	.	.	.
16G#X\L	.	.	16g#X/L	.	16g#X/L	.	.	.	.	.	.	.	.	.	.	.	.	.
16F\JJ	.	.	16f/JJ	.	16f/JJ	.	.	.	.	.	.	.	.	.	.	.	.	.
16E/LL	.	.	16e/LL	.	16e/LL	.	.	.	.	.	.	.	.	.	.	.	.	.
16D/	.	.	16d/	.	16d/	.	.	.	.	.	.	.	.	.	.	.	.	.
16C/	.	.	16c/	.	16c/	.	.	.	.	.	.	.	.	.	.	.	.	.
16BB/JJ	.	.	16B/JJ	.	16B/JJ	.	.	.	.	.	.	.	.	.	.	.	.	.
=69	=69	=69	=69	=69	=69	=69	=69	=69	=69	=69	=69	=69	=69	=69	=69	=69	=69	=69
4AA/	.	.	4A/	.	4A/	.	.	.	4r	.	.	.	.	.	.	.	.	.
4AA/	.	.	4A/	.	4A/	.	.	.	8c\L	in	.	.	.	.	.	.	.	.
.	.	.	.	.	.	.	.	.	8e\J	.	.	.	.	.	.	.	.	.
2r	.	.	2r	.	2r	.	.	.	8d\L	Di-	.	.	.	.	.	.	.	.
.	.	.	.	.	.	.	.	.	8c\J	.	.	.	.	.	.	.	.	.
.	.	.	.	.	.	.	.	.	8B\L	-e	.	.	.	.	.	.	.	.
.	.	.	.	.	.	.	.	.	8A\J	.	.	.	.	.	.	.	.	.
=70	=70	=70	=70	=70	=70	=70	=70	=70	=70	=70	=70	=70	=70	=70	=70	=70	=70	=70
8r	.	.	8r	.	8r	.	.	.	8c\L	i-	.	.	.	.	.	.	.	.
8E\L	#	.	8e/L	.	8e/L	.	.	.	8B\J	.	.	.	.	.	.	.	.	.
8E\	.	.	8e/	.	8e/	.	.	.	4B\	-rae	.	.	.	.	.	.	.	.
8E\J	.	.	8e/J	.	8e/J	.	.	.	.	.	.	.	.	.	.	.	.	.
16E\LL	.	.	16e/LL	.	16e/LL	.	.	.	4r	.	.	.	.	.	.	.	.	.
16F\	.	.	16f/	.	16f/	.	.	.	.	.	.	.	.	.	.	.	.	.
16E\	.	.	16e/	.	16e/	.	.	.	.	.	.	.	.	.	.	.	.	.
16D\JJ	.	.	16d/JJ	.	16d/JJ	.	.	.	.	.	.	.	.	.	.	.	.	.
16C/LL	.	.	16c/LL	.	16c/LL	.	.	.	4e\	Con-	.	.	.	.	.	.	.	.
16D/	.	.	16d/	.	16d/	.	.	.	.	.	.	.	.	.	.	.	.	.
16C/	.	.	16c/	.	16c/	.	.	.	.	.	.	.	.	.	.	.	.	.
16BB/JJ	.	.	16B/JJ	.	16B/JJ	.	.	.	.	.	.	.	.	.	.	.	.	.
!	!	!	!LO:LB:g=original	!	!	!	!	!	!	!	!	!	!	!	!	!	!	!
=71	=71	=71	=71	=71	=71	=71	=71	=71	=71	=71	=71	=71	=71	=71	=71	=71	=71	=71
8AA/L	.	.	8c/L	.	8c/L	.	00r	.	2e\	-fri-	00r	.	00r	.	.	00r	.	00r
8BB/	.	.	8B/	.	8B/	.	.	.	.	.	.	.	.	.	.	.	.	.
8C/	6	.	8A/	.	8A/	.	.	.	.	.	.	.	.	.	.	.	.	.
8D/J	4#r 2	.	8G#X/J	.	8G#X/J	.	.	.	.	.	.	.	.	.	.	.	.	.
8C/L	6	.	8A/L	.	8A/L	.	.	.	4E/	-git	.	.	.	.	.	.	.	.
8BB/	.	.	8B/	.	8B/	.	.	.	.	.	.	.	.	.	.	.	.	.
*	*	*	*	*	*	*	*	*	*	*ij	*	*	*	*	*	*	*	*
8AA/	.	.	8c/	.	8c/	.	.	.	4e\	Con-	.	.	.	.	.	.	.	.
8GG#X/J	6 5	.	8d/J	.	8d/J	.	.	.	.	.	.	.	.	.	.	.	.	.
!LO:LB:g=original	!	!	!	!	!	!	!	!	!LO:LB:g=original	!	!	!	!	!	!	!	!	!
=72	=72	=72	=72	=72	=72	=72	=72	=72	=72	=72	=72	=72	=72	=72	=72	=72	=72	=72
8AA/L	.	.	8c/L	.	8c/L	.	.	.	2e\	-fri-	.	.	.	.	.	.	.	.
8BB/	.	.	8B/	.	8B/	.	.	.	.	.	.	.	.	.	.	.	.	.
8C/	6	.	8A/	.	8A/	.	.	.	.	.	.	.	.	.	.	.	.	.
8D/J	4 2	.	8G#X/J	.	8G#X/J	.	.	.	.	.	.	.	.	.	.	.	.	.
8C/L	6	.	8A/L	.	8A/L	.	.	.	4E/	-git	.	.	.	.	.	.	.	.
*	*	*	*	*	*	*	*	*	*	*Xij	*	*	*	*	*	*	*	*
8BB/	.	.	8B/	.	8B/	.	.	.	.	.	.	.	.	.	.	.	.	.
8AA/	.	.	8c/	.	8c/	.	.	.	4e\	in	.	.	.	.	.	.	.	.
8GG#X/J	6 5	.	8d/J	.	8d/J	.	.	.	.	.	.	.	.	.	.	.	.	.
!	!	!	!	!	!LO:LB:g=original	!	!	!	!	!	!	!	!	!	!	!	!	!
=73	=73	=73	=73	=73	=73	=73	=73	=73	=73	=73	=73	=73	=73	=73	=73	=73	=73	=73
8AA/L	.	.	8c/L	.	8c/L	.	.	.	4e\	Di-	.	.	.	.	.	.	.	.
8BB/	.	.	8B/	.	8B/	.	.	.	.	.	.	.	.	.	.	.	.	.
8C/	6	.	8A/	.	8A/	.	.	.	4E/	-e	.	.	.	.	.	.	.	.
8D/J	4#r 2	.	8G#X/J	.	8G#X/J	.	.	.	.	.	.	.	.	.	.	.	.	.
8C/L	6	.	8A/L	.	8A/L	.	.	.	4e\	i-	.	.	.	.	.	.	.	.
8BB/	.	.	8B/	.	8B/	.	.	.	.	.	.	.	.	.	.	.	.	.
8AA/	.	.	8c/	.	8c/	.	.	.	4e\	-re	.	.	.	.	.	.	.	.
8GG#X/J	6 5	.	8d/J	.	8d/J	.	.	.	.	.	.	.	.	.	.	.	.	.
=74	=74	=74	=74	=74	=74	=74	=74	=74	=74	=74	=74	=74	=74	=74	=74	=74	=74	=74
8AA/L	.	.	16c/LL	.	16c/LL	.	.	.	4e\	Su-	.	.	.	.	.	.	.	.
.	.	.	16A/	.	16A/	.	.	.	.	.	.	.	.	.	.	.	.	.
16BB/L	.	.	16B/	.	16B/	.	.	.	.	.	.	.	.	.	.	.	.	.
16C/JJ	.	.	16c/JJ	.	16c/JJ	.	.	.	.	.	.	.	.	.	.	.	.	.
16D\LL	.	.	16d/LL	.	16d/LL	.	.	.	4E/	-e	.	.	.	.	.	.	.	.
16E\	.	.	16e/	.	16e/	.	.	.	.	.	.	.	.	.	.	.	.	.
16F\	.	.	16f/	.	16f/	.	.	.	.	.	.	.	.	.	.	.	.	.
16G#X\JJ	.	.	16g#X/JJ	.	16g#X/JJ	.	.	.	.	.	.	.	.	.	.	.	.	.
8A'\L	.	.	8a/L	.	8a\L	.	.	.	4.e\	i-	.	.	.	.	.	.	.	.
8B'\	.	.	8b/	.	8b\	.	.	.	.	.	.	.	.	.	.	.	.	.
8c'\	.	.	8cc/	.	8cc\	.	.	.	.	.	.	.	.	.	.	.	.	.
8A'\J	.	.	8a/J	.	8ee\J	.	.	.	16d\LL	-re	.	.	.	.	.	.	.	.
.	.	.	.	.	.	.	.	.	16c\JJ	.	.	.	.	.	.	.	.	.
=75	=75	=75	=75	=75	=75	=75	=75	=75	=75	=75	=75	=75	=75	=75	=75	=75	=75	=75
8d'\L	.	.	8f/L	.	4dd\	.	00r	.	8c\L	Su-	00r	.	00r	.	.	00r	.	00r
8c\J	.	.	8e/J	.	.	.	.	.	8B\J	.	.	.	.	.	.	.	.	.
8B\L	.	.	8d/L	.	8ff\L	.	.	.	8d\L	-ae	.	.	.	.	.	.	.	.
16c\L	.	.	16e/L	.	8dd\J	.	.	.	16c\L	.	.	.	.	.	.	.	.	.
16d\JJ	.	.	16f/JJ	.	.	.	.	.	16B\JJ	.	.	.	.	.	.	.	.	.
!	!	!	!LO:LB:g=original	!	!	!	!	!	!	!	!	!	!	!	!	!	!	!
=-	=-	=-	=-	=-	=-	=-	=-	=-	=-	=-	=-	=-	=-	=-	=-	=-	=-	=-
8e\L	6 4	.	4e/	.	4cc\	.	.	.	4A/	Re-	.	.	.	.	.	.	.	.
8d\	.	.	.	.	.	.	.	.	.	.	.	.	.	.	.	.	.	.
8e\	6 #	.	4e/	.	4b\	.	.	.	4G#X/	.	.	.	.	.	.	.	.	.
8E\J	.	.	.	.	.	.	.	.	.	.	.	.	.	.	.	.	.	.
=76	=76	=76	=76	=76	=76	=76	=76	=76	=76	=76	=76	=76	=76	=76	=76	=76	=76	=76
4A\	.	.	8e/L	.	4cc\	.	.	.	4A/	-giſ	.	.	.	.	.	.	.	.
.	.	.	8e/	.	.	.	.	.	.	.	.	.	.	.	.	.	.	.
4r	.	.	8e/	.	4r	.	.	.	4r	.	.	.	.	.	.	.	.	.
.	.	.	8e/J	.	.	.	.	.	.	.	.	.	.	.	.	.	.	.
*	*	*	*tremolo	*	*	*	*	*	*	*	*	*	*	*	*	*	*	*
!	!	!LO:DY:b	!	!	!	!	!	!	!	!	!	!	!	!	!	!	!	!
2G#X\	6 5	f	8e/L	.	4.dd\	.	.	.	2r	.	.	.	.	.	.	.	.	.
.	.	.	8e/	.	.	.	.	.	.	.	.	.	.	.	.	.	.	.
.	.	.	8e/	.	.	.	.	.	.	.	.	.	.	.	.	.	.	.
.	.	.	8e/J	.	16ee\LL	.	.	.	.	.	.	.	.	.	.	.	.	.
.	.	.	.	.	16dd\JJ	.	.	.	.	.	.	.	.	.	.	.	.	.
=77	=77	=77	=77	=77	=77	=77	=77	=77	=77	=77	=77	=77	=77	=77	=77	=77	=77	=77
8A\	.	.	8e/L	.	8cc\	.	.	.	0r	.	.	.	.	.	.	.	.	.
8r	.	.	8e/	.	8r	.	.	.	.	.	.	.	.	.	.	.	.	.
8c\	6	.	8e/	.	8a/	.	.	.	.	.	.	.	.	.	.	.	.	.
8r	.	.	8e/J	.	8r	.	.	.	.	.	.	.	.	.	.	.	.	.
8e\	#	.	8e/L	.	8g#X/	.	.	.	.	.	.	.	.	.	.	.	.	.
8r	.	.	8e/	.	8r	.	.	.	.	.	.	.	.	.	.	.	.	.
8d\	_	.	8e/	.	8b\	.	.	.	.	.	.	.	.	.	.	.	.	.
8r	.	.	8e/J	.	8r	.	.	.	.	.	.	.	.	.	.	.	.	.
!LO:LB:g=original	!	!	!	!	!LO:LB:g=original	!	!	!	!	!	!	!	!	!	!	!	!	!
=78	=78	=78	=78	=78	=78	=78	=78	=78	=78	=78	=78	=78	=78	=78	=78	=78	=78	=78
8c\	6	.	8e/L	.	8a/	.	.	.	.	.	.	.	.	.	.	.	.	.
8r	.	.	8e/	.	8r	.	.	.	.	.	.	.	.	.	.	.	.	.
8A\	.	.	8e/	.	8cc\	.	.	.	.	.	.	.	.	.	.	.	.	.
8r	.	.	8e/J	.	8r	.	.	.	.	.	.	.	.	.	.	.	.	.
2G#X\	6 5	.	8e/L	.	4.dd\	.	.	.	.	.	.	.	.	.	.	.	.	.
.	.	.	8e/	.	.	.	.	.	.	.	.	.	.	.	.	.	.	.
.	.	.	8e/	.	.	.	.	.	.	.	.	.	.	.	.	.	.	.
.	.	.	8e/J	.	16ee\LL	.	.	.	.	.	.	.	.	.	.	.	.	.
.	.	.	.	.	16dd\JJ	.	.	.	.	.	.	.	.	.	.	.	.	.
=79	=79	=79	=79	=79	=79	=79	=79	=79	=79	=79	=79	=79	=79	=79	=79	=79	=79	=79
8A\	.	.	8e/L	.	8cc\	.	1r	.	1r	.	1r	.	1r	.	.	1r	.	1r
8r	.	.	8e/	.	8r	.	.	.	.	.	.	.	.	.	.	.	.	.
8C/	6	.	8e/	.	8a/	.	.	.	.	.	.	.	.	.	.	.	.	.
8r	.	.	8e/J	.	8r	.	.	.	.	.	.	.	.	.	.	.	.	.
*	*	*	*Xtremolo	*	*	*	*	*	*	*	*	*	*	*	*	*	*	*
8D\	6	.	8f/L	.	8b/	.	.	.	.	.	.	.	.	.	.	.	.	.
8r	.	.	8d/	.	8r	.	.	.	.	.	.	.	.	.	.	.	.	.
8E\	#	.	8B/	.	8g#X/	.	.	.	.	.	.	.	.	.	.	.	.	.
8r	.	.	8e/J	.	8r	.	.	.	.	.	.	.	.	.	.	.	.	.
!	!	!	!	!	!	!	!	!	!LO:LB:g=original	!	!LO:LB:g=original	!	!	!	!	!	!	!
=80	=80	=80	=80	=80	=80	=80	=80	=80	=80	=80	=80	=80	=80	=80	=80	=80	=80	=80
!LO:TX:a:i:t=tutti	!	!	!	!LO:DY:a:rj	!	!LO:DY:a:rj	!	!	!	!	!	!	!	!	!	!	!	!
8AA/L	.	.	4e\ 4cc 4aa	f	4e\ 4cc 4aa	f	2A\	Ju-	2e\	ju-	2a\	Ju-	2cc\	Ju-	.	4e/	.	4ee\
8BB/	.	.	.	.	.	.	.	.	.	.	.	.	.	.	.	.	.	.
8C/	.	.	4r	.	4r	.	.	.	.	.	.	.	.	.	.	8e/L	.	8ee\L
8D/J	.	.	.	.	.	.	.	.	.	.	.	.	.	.	.	8e/J	.	8ee\J
8E\L	#	.	4e\ 4b 4gg#X	.	4e\ 4b 4gg#X	.	2E\	-di-	2e\	-di-	2g#X\	-di-	2b\	-di-	.	4e/	.	4ee\
8F\	.	.	.	.	.	.	.	.	.	.	.	.	.	.	.	.	.	.
8G#X\	_	.	4r	.	4r	.	.	.	.	.	.	.	.	.	.	4e/	.	4ee\
8E\J	.	.	.	.	.	.	.	.	.	.	.	.	.	.	.	.	.	.
=81	=81	=81	=81	=81	=81	=81	=81	=81	=81	=81	=81	=81	=81	=81	=81	=81	=81	=81
!LO:TX:t=P:problem=mixed beam	!	!	!LO:TX:t=P:problem=mixed beam	!	!LO:TX:t=P:problem=mixed beam	!	!	!	!	!	!	!	!	!	!	!	!	!
8A\L	x	.	8e\L 8cc 8aa	.	8e\L 8cc 8aa	.	4A\	-Ca-	4e\	-ca-	4a\	-ca-	4cc\	-ca-	.	4e/	.	4ee\
8AA/	.	.	8a/	.	8a/	.	.	.	.	.	.	.	.	.	.	.	.	.
8A|>\	.	.	8a/	.	8a/	.	4A\	-bit	4e\	-bit	4a\	-bit	4cc\	-bit	.	4e/	.	4ee\
8A|>\J	.	.	8a/J	.	8a/J	.	.	.	.	.	.	.	.	.	.	.	.	.
8A\L	.	.	8a/L	.	8a/L	.	2r	.	2r	.	2r	.	2r	.	.	2r	.	2r
16G#X\L	.	.	16g#X/L	.	16g#X/L	.	.	.	.	.	.	.	.	.	.	.	.	.
16F\JJ	.	.	16f/JJ	.	16f/JJ	.	.	.	.	.	.	.	.	.	.	.	.	.
16E\LL	.	.	16e/LL	.	16e/LL	.	.	.	.	.	.	.	.	.	.	.	.	.
16D\	.	.	16d/	.	16d/	.	.	.	.	.	.	.	.	.	.	.	.	.
16C\	.	.	16c/	.	16c/	.	.	.	.	.	.	.	.	.	.	.	.	.
16BB\JJ	.	.	16B/JJ	.	16B/JJ	.	.	.	.	.	.	.	.	.	.	.	.	.
!	!	!	!LO:LB:g=original	!	!LO:LB:g=original	!	!	!	!	!	!	!	!	!	!	!	!	!
=82	=82	=82	=82	=82	=82	=82	=82	=82	=82	=82	=82	=82	=82	=82	=82	=82	=82	=82
*	*	*	*	*	*	*	*	*ij	*	*	*	*	*	*ij	*	*	*	*
8AA/L	.	.	4A/ 4e 4cc 4aa	.	4A/ 4e 4cc 4aa	.	2A\	Ju-	2e\	Ju-	2a\	Ju-	2cc\	Ju-	.	4e/	.	4ee\
8BB/	.	.	.	.	.	.	.	.	.	.	.	.	.	.	.	.	.	.
8C/	.	.	4r	.	4r	.	.	.	.	.	.	.	.	.	.	8e/L	.	8ee\L
8D/J	.	.	.	.	.	.	.	.	.	.	.	.	.	.	.	8e/J	.	8ee\J
8E\L	#	.	4e\ 4b 4gg#X	.	4e\ 4b 4gg#X	.	2E\	-di-	2e\	-di-	2g#X\	-di-	2b\	-di-	.	4e/	.	4ee\
8F\	.	.	.	.	.	.	.	.	.	.	.	.	.	.	.	.	.	.
8G#X\	_	.	4r	.	4r	.	.	.	.	.	.	.	.	.	.	4e/	.	4ee\
8E\J	.	.	.	.	.	.	.	.	.	.	.	.	.	.	.	.	.	.
!LO:LB:g=original	!	!	!	!	!	!	!	!	!	!	!	!	!	!	!	!LO:LB:g=original	!	!LO:LB:g=original
=83	=83	=83	=83	=83	=83	=83	=83	=83	=83	=83	=83	=83	=83	=83	=83	=83	=83	=83
!LO:TX:t=P:problem=mixed beam	!	!	!LO:TX:t=P:problem=mixed beam	!	!LO:TX:t=P:problem=mixed beam	!	!	!	!	!	!	!	!	!	!	!	!	!
8A\L	x	.	8e\L 8cc 8aa	.	8e\L 8cc 8aa	.	4A\	-Ca-	4e\	-ca-	4a\	-ca-	4cc\	-ca-	.	4e/	.	4ee\
8AA/	.	.	8a/	.	8a/	.	.	.	.	.	.	.	.	.	.	.	.	.
8A\	.	.	8a/	.	8a/	.	4A\	-bit	4e\	-bit	4a\	-bit	4cc\	-bit	.	4e/	.	4ee\
*	*	*	*	*	*	*	*	*Xij	*	*	*	*	*	*	*	*	*	*
8A\J	.	.	8a/J	.	8a/J	.	.	.	.	.	.	.	.	.	.	.	.	.
8A|>\L	.	.	8a/L	.	8a/L	.	2r	.	2r	.	2r	.	2r	.	.	2r	.	2r
16G#X|>\L	.	.	16g#X/L	.	16g#X/L	.	.	.	.	.	.	.	.	.	.	.	.	.
16F|>\JJ	.	.	16f/JJ	.	16f/JJ	.	.	.	.	.	.	.	.	.	.	.	.	.
16E|</LL	.	.	16e/LL	.	16e/LL	.	.	.	.	.	.	.	.	.	.	.	.	.
16D|</	.	.	16d/	.	16d/	.	.	.	.	.	.	.	.	.	.	.	.	.
16C|</	.	.	16c/	.	16c/	.	.	.	.	.	.	.	.	.	.	.	.	.
16BB|</JJ	.	.	16B/JJ	.	16B/JJ	.	.	.	.	.	.	.	.	.	.	.	.	.
=84	=84	=84	=84	=84	=84	=84	=84	=84	=84	=84	=84	=84	=84	=84	=84	=84	=84	=84
*	*	*	*	*	*	*	*	*	*	*ij	*	*ij	*	*	*	*	*	*
8AA/L	#	.	8A/L	.	8A/L	.	2A\	Ju-	2c#X\	Ju-	2a\	Ju-	2ee\	Ju-	.	4e/	.	4ee\
16BB/L	.	.	16B/L	.	16B/L	.	.	.	.	.	.	.	.	.	.	.	.	.
16C#X/JJ	.	.	16c/JJ	.	16c/JJ	.	.	.	.	.	.	.	.	.	.	.	.	.
16D|>\LL	.	.	16d/LL	.	16d/LL	.	.	.	.	.	.	.	.	.	.	4r	.	4r
16E|>\	.	.	16e/	.	16e/	.	.	.	.	.	.	.	.	.	.	.	.	.
16F|>\	.	.	16f/	.	16f/	.	.	.	.	.	.	.	.	.	.	.	.	.
16G#X|>\JJ	.	.	16g#X/JJ	.	16g#X/JJ	.	.	.	.	.	.	.	.	.	.	.	.	.
8A|>\L	.	.	8a/L	.	8a/L	.	2A\	-di-	2c#\	-di-	2a\	-di-	2ee\	-di-	.	2r	.	2r
8Gn|>\	.	.	8gn/	.	8gn/	.	.	.	.	.	.	.	.	.	.	.	.	.
8F|>\	.	.	8f/	.	8f/	.	.	.	.	.	.	.	.	.	.	.	.	.
8E|>\J	.	.	8e/J	.	8e/J	.	.	.	.	.	.	.	.	.	.	.	.	.
=85	=85	=85	=85	=85	=85	=85	=85	=85	=85	=85	=85	=85	=85	=85	=85	=85	=85	=85
8D\L	.	.	8d/L	.	8d/L	.	2d\	-ca-	2d\	-ca-	2a\	-ca-	2ff\	-ca-	.	4dd\	.	4dd\
16E\L	.	.	16e/L	.	16e/L	.	.	.	.	.	.	.	.	.	.	.	.	.
16F\JJ	.	.	16f/JJ	.	16f/JJ	.	.	.	.	.	.	.	.	.	.	.	.	.
16G\LL	.	.	16g\LL	.	16g/LL	.	.	.	.	.	.	.	.	.	.	4r	.	4r
16A\	.	.	16a\	.	16a/	.	.	.	.	.	.	.	.	.	.	.	.	.
16B\	.	.	16b\	.	16b/	.	.	.	.	.	.	.	.	.	.	.	.	.
16c#X\JJ	.	.	16cc#X\JJ	.	16cc#X/JJ	.	.	.	.	.	.	.	.	.	.	.	.	.
8d\L	.	.	8dd/L	.	8dd/L	.	4d\	-bit	4d\	-bit	4a\	-bit	4ff\	-bit	.	2r	.	2r
*	*	*	*	*	*	*	*	*	*	*Xij	*	*Xij	*	*Xij	*	*	*	*
8cn\	.	.	8ccnX/	.	8ccnX/	.	.	.	.	.	.	.	.	.	.	.	.	.
8B\	.	.	8b/	.	8b/	.	4d\	in	4d\	in	4a\	in	4ff\	in	.	.	.	.
8A\J	.	.	8a/J	.	8a/J	.	.	.	.	.	.	.	.	.	.	.	.	.
!	!	!	!LO:PB:g=original	!	!LO:PB:g=original	!	!	!	!	!	!	!	!LO:LB:g=original	!	!	!	!	!
=86	=86	=86	=86	=86	=86	=86	=86	=86	=86	=86	=86	=86	=86	=86	=86	=86	=86	=86
!LO:TX:t=P:problem=mixed beam	!	!	!	!	!	!	!	!	!	!	!	!	!	!	!	!	!	!
16G\LL	.	.	16g/LL	.	16g/LL	.	2G\	na-	2B\	na-	2g\	na-	2dd\	na-	.	4g/	.	4dd\
16GG/	.	.	16G/	.	16G/	.	.	.	.	.	.	.	.	.	.	.	.	.
16AA/	.	.	16A/	.	16A/	.	.	.	.	.	.	.	.	.	.	.	.	.
16BB/JJ	.	.	16B/JJ	.	16B/JJ	.	.	.	.	.	.	.	.	.	.	.	.	.
16C\LL	.	.	16c/LL	.	16c/LL	.	.	.	.	.	.	.	.	.	.	4r	.	4r
16D\	.	.	16d/	.	16d/	.	.	.	.	.	.	.	.	.	.	.	.	.
16E\	.	.	16e/	.	16e/	.	.	.	.	.	.	.	.	.	.	.	.	.
16F#X\JJ	.	.	16f#X/JJ	.	16f#X/JJ	.	.	.	.	.	.	.	.	.	.	.	.	.
8G\L	.	.	8g/L	.	8g/L	.	2G\	-ti-	2B\	-ti-	2g\	-ti-	2dd\	-ti-	.	2r	.	2r
8Fn\	.	.	8fn/	.	8fn/	.	.	.	.	.	.	.	.	.	.	.	.	.
8E\	.	.	8e/	.	8e/	.	.	.	.	.	.	.	.	.	.	.	.	.
8D\J	.	.	8d/J	.	8d/J	.	.	.	.	.	.	.	.	.	.	.	.	.
!LO:LB:g=original	!	!	!	!	!	!	!LO:LB:g=original	!	!LO:LB:g=original	!	!	!	!	!	!	!	!	!
=87	=87	=87	=87	=87	=87	=87	=87	=87	=87	=87	=87	=87	=87	=87	=87	=87	=87	=87
8C\L	.	.	8c/L	.	8c/L	.	2c\	-o-	2cn\	-o-	2g\	-o-	2ee\	-o-	.	4e/	.	4cc\
16D\L	.	.	16d/L	.	16d/L	.	.	.	.	.	.	.	.	.	.	.	.	.
16E\JJ	.	.	16e/JJ	.	16e/JJ	.	.	.	.	.	.	.	.	.	.	.	.	.
16F\LL	.	.	16f/LL	.	16f/LL	.	.	.	.	.	.	.	.	.	.	4r	.	4r
16G\	.	.	16g/	.	16g/	.	.	.	.	.	.	.	.	.	.	.	.	.
16A\	.	.	16a/	.	16a/	.	.	.	.	.	.	.	.	.	.	.	.	.
16B\JJ	.	.	16b/JJ	.	16b/JJ	.	.	.	.	.	.	.	.	.	.	.	.	.
8c\L	.	.	8cc/L	.	8cc/L	.	2c\	-ni-	2c\	-ni-	2g\	-ni-	2ee\	-ni-	.	2r	.	2r
8B-X\	.	.	8b-X/	.	8b-X/	.	.	.	.	.	.	.	.	.	.	.	.	.
8A\	.	.	8a/	.	8a/	.	.	.	.	.	.	.	.	.	.	.	.	.
8G\J	.	.	8g/J	.	8g/J	.	.	.	.	.	.	.	.	.	.	.	.	.
!	!	!	!	!	!	!	!	!	!	!	!LO:LB:g=original	!	!	!	!	!	!	!
=88	=88	=88	=88	=88	=88	=88	=88	=88	=88	=88	=88	=88	=88	=88	=88	=88	=88	=88
4F\	.	.	4f/	.	4f/	.	4F\	-bus	4c\	-bus	4a\	-buſ	4ff\	-buſ	.	00r	.	00r
4r	.	.	4r	.	4ff\	.	4r	.	4r	.	4r	.	4ff\	im-	.	.	.	.
2r	.	.	2r	.	8ff\L	.	2r	.	2r	.	2r	.	8ff\L	-ple-	.	.	.	.
.	.	.	.	.	8ee\	.	.	.	.	.	.	.	8ee\J	.	.	.	.	.
.	.	.	.	.	8dd\	.	.	.	.	.	.	.	8dd\	-bit	.	.	.	.
.	.	.	.	.	8cc\J	.	.	.	.	.	.	.	8cc\	ru-	.	.	.	.
=89	=89	=89	=89	=89	=89	=89	=89	=89	=89	=89	=89	=89	=89	=89	=89	=89	=89	=89
4r	.	.	1r	.	4.bn\	.	4r	.	0r	.	1r	.	2b\	-i-	.	.	.	.
4F\	4 2	.	.	.	.	.	4F\	im-	.	.	.	.	.	.	.	.	.	.
.	.	.	.	.	16a\LL	.	.	.	.	.	.	.	.	.	.	.	.	.
.	.	.	.	.	16b\JJ	.	.	.	.	.	.	.	.	.	.	.	.	.
8F\L	6_	.	.	.	4cc\	.	8F\L	-ple-	.	.	.	.	4cc\	-naſ	.	.	.	.
8E\	.	.	.	.	.	.	8E\J	.	.	.	.	.	.	.	.	.	.	.
*	*	*	*	*	*	*	*	*	*	*	*	*	*	*ij	*	*	*	*
8D\	.	.	.	.	4cc\	.	8D/	-bit	.	.	.	.	4cc\	im-	.	.	.	.
8C\J	x	.	.	.	.	.	8C/	ru-	.	.	.	.	.	.	.	.	.	.
=90	=90	=90	=90	=90	=90	=90	=90	=90	=90	=90	=90	=90	=90	=90	=90	=90	=90	=90
2BB/	6 5	.	4r	.	4.dd\	.	2BB/	-i-	.	.	4r	.	2dd\	-ple-	.	.	.	.
.	.	.	4f/	.	.	.	.	.	.	.	4f\	im-	.	.	.	.	.	.
.	.	.	.	.	16cc\LL	.	.	.	.	.	.	.	.	.	.	.	.	.
.	.	.	.	.	16dd\JJ	.	.	.	.	.	.	.	.	.	.	.	.	.
2C/	3	.	8f/L	.	4ee\	.	4C/	-naſ	.	.	8f\L	-ple-	4ee\	-bit	.	.	.	.
.	.	.	8e/	.	.	.	.	.	.	.	8e\J	.	.	.	.	.	.	.
.	.	.	8d/	.	4ee\	.	4C/	ru-	.	.	8d\	-bit	4ee\	ru-	.	.	.	.
.	.	.	8c/J	.	.	.	.	.	.	.	8c\	ru-	.	.	.	.	.	.
!	!	!	!	!	!LO:LB:g=original	!	!	!	!	!	!	!	!	!	!	!	!	!
=91	=91	=91	=91	=91	=91	=91	=91	=91	=91	=91	=91	=91	=91	=91	=91	=91	=91	=91
!	!	!	!	!	!	!	!	!	!LO:TX:a:i:t=Solo:rj	!	!	!	!	!	!	!	!	!
2D/	6 3	.	4.B/	.	2gg\	.	2D/	-i-	4f\	Con-	2B/	-i-	2gg\	-i-	.	.	.	.
.	.	.	.	.	.	.	.	.	4f\	-quaſ-	.	.	.	.	.	.	.	.
.	.	.	16A/LL	.	.	.	.	.	.	.	.	.	.	.	.	.	.	.
.	.	.	16B/JJ	.	.	.	.	.	.	.	.	.	.	.	.	.	.	.
4C/	3	.	4c/	.	4gg\	.	4C/	-naſ	8f\L	-sa-	4c/	-naſ	4gg\	-naſ	.	.	.	.
*	*	*	*	*	*	*	*	*	*	*	*	*	*	*Xij	*	*	*	*
.	.	.	.	.	.	.	.	.	8e\J	.	.	.	.	.	.	.	.	.
4r	.	.	4r	.	4r	.	4r	.	8d\L	-bit	4r	.	4r	.	.	.	.	.
.	.	.	.	.	.	.	.	.	8c\J	.	.	.	.	.	.	.	.	.
!	!	!	!	!	!	!	!	!	!	!	!	!	!LO:LB:g=original	!	!	!	!	!
=92	=92	=92	=92	=92	=92	=92	=92	=92	=92	=92	=92	=92	=92	=92	=92	=92	=92	=92
8C/L	8 3	.	8cc\	.	8ee\	.	4c\	Con-	2c\	Ca-	4g\	Con-	4ee\	Con-	.	1cc	.	1ee
16D/L	_ _	.	4cc\	.	4ee\	.	.	.	.	.	.	.	.	.	.	.	.	.
16E/JJ	.	.	.	.	.	.	.	.	.	.	.	.	.	.	.	.	.	.
16F\LL	.	.	.	.	.	.	4c\	-quaſ-	.	.	4g\	-qua-	4ee\	-qua-	.	.	.	.
16G\	.	.	.	.	.	.	.	.	.	.	.	.	.	.	.	.	.	.
16A\	.	.	4cc\	.	4ee\	.	.	.	.	.	.	.	.	.	.	.	.	.
16B\JJ	.	.	.	.	.	.	.	.	.	.	.	.	.	.	.	.	.	.
8c\L	.	.	.	.	.	.	8c\L	-sa-	2c\	-pi-	4g\	-ſa-	4ee\	-ſa-	.	.	.	.
8B\	.	.	4cc\	.	4ee\	.	8B\J	.	.	.	.	.	.	.	.	.	.	.
8A\	.	.	.	.	.	.	8A\L	-bit	.	.	4g\	-bit	4ee\	-bit	.	.	.	.
8G\J	.	.	8cc\	.	8ee\	.	8G\J	.	.	.	.	.	.	.	.	.	.	.
!	!	!	!	!	!	!	!LO:LB:g=original	!	!	!	!	!	!	!	!	!	!	!
=93	=93	=93	=93	=93	=93	=93	=93	=93	=93	=93	=93	=93	=93	=93	=93	=93	=93	=93
!LO:TX:t=P:problem=mixed beam	!	!	!	!	!	!	!	!	!	!	!	!	!	!	!	!	!	!
16A\LL	.	.	8cc\	.	8ee\	.	4A\	Ca-	2c\	-ta	4.a\	Ca-	4.ee\	Ca-	.	1cc	.	1ee
16AA/	.	.	.	.	.	.	.	.	.	.	.	.	.	.	.	.	.	.
16BB/	.	.	4cc\	.	4ee\	.	.	.	.	.	.	.	.	.	.	.	.	.
16C/JJ	.	.	.	.	.	.	.	.	.	.	.	.	.	.	.	.	.	.
16D\LL	.	.	.	.	.	.	4A\	-pi-	.	.	.	.	.	.	.	.	.	.
16E\	.	.	.	.	.	.	.	.	.	.	.	.	.	.	.	.	.	.
16F\	.	.	4cc\	.	4ee\	.	.	.	.	.	8a\	-pi-	8ee\	-pi-	.	.	.	.
16G\JJ	.	.	.	.	.	.	.	.	.	.	.	.	.	.	.	.	.	.
8A\L	.	.	.	.	.	.	8A\L	-ta	2c\	in	4a\	-ta	4ee\	-ta	.	.	.	.
8G\	.	.	4cc\	.	4ee\	.	8G\J	.	.	.	.	.	.	.	.	.	.	.
8F\	.	.	.	.	.	.	8F\L	in	.	.	4a\	in	4ee\	in	.	.	.	.
8E\J	x x	.	8cc\	.	8ee\	.	8E\J	.	.	.	.	.	.	.	.	.	.	.
!	!	!	!LO:LB:g=original	!	!	!	!	!	!	!	!LO:LB:g=original	!	!	!	!	!	!	!
=94	=94	=94	=94	=94	=94	=94	=94	=94	=94	=94	=94	=94	=94	=94	=94	=94	=94	=94
8F\L	6 5	.	8cc\	.	8dd\	.	2F\	ter-	2c\	ter-	2a\	ter-	2dd\	ter-	.	1dd	.	1ff
8G\	.	.	4cc\	.	4dd\	.	.	.	.	.	.	.	.	.	.	.	.	.
8A\	.	.	.	.	.	.	.	.	.	.	.	.	.	.	.	.	.	.
8G\J	.	.	4cc\	.	4dd\	.	.	.	.	.	.	.	.	.	.	.	.	.
8F\L	_ _	.	.	.	.	.	4F\	-ra	4c\	-ra	4a\	-ra	4dd\	-ra	.	.	.	.
8G\	.	.	4cc\	.	4dd\	.	.	.	.	.	.	.	.	.	.	.	.	.
8A\	.	.	.	.	.	.	4F\	mul-	4c\	mul-	4a\	mul-	4dd\	mul-	.	.	.	.
8F\J	x x	.	8cc\	.	8dd\	.	.	.	.	.	.	.	.	.	.	.	.	.
!	!	!	!	!	!	!	!	!	!LO:LB:g=original	!	!	!	!	!	!	!	!	!
=95	=95	=95	=95	=95	=95	=95	=95	=95	=95	=95	=95	=95	=95	=95	=95	=95	=95	=95
8G\L	5 4	.	8cc\	.	8dd\	.	1G	-to-	2c\	-to-	1g	-to-	1dd	-to-	.	2cc\	.	1dd
8G\	_	.	4cc\	.	4dd\	.	.	.	.	.	.	.	.	.	.	.	.	.
8G\	.	.	.	.	.	.	.	.	.	.	.	.	.	.	.	.	.	.
8G\J	.	.	8cc\	.	4dd\	.	.	.	.	.	.	.	.	.	.	.	.	.
*tremolo	*	*	*	*	*	*	*	*	*	*	*	*	*	*	*	*	*	*
8GG/L	_ 3	.	8b\	.	.	.	.	.	2B\	.	.	.	.	.	.	2g/	.	.
8GG/	x	.	4b\	.	4dd\	.	.	.	.	.	.	.	.	.	.	.	.	.
8GG/	.	.	.	.	.	.	.	.	.	.	.	.	.	.	.	.	.	.
8GG/J	.	.	8b\	.	8dd\	.	.	.	.	.	.	.	.	.	.	.	.	.
*Xtremolo	*	*	*	*	*	*	*	*	*	*	*	*	*	*	*	*	*	*
=96	=96	=96	=96	=96	=96	=96	=96	=96	=96	=96	=96	=96	=96	=96	=96	=96	=96	=96
!	!	!	!	!	!LO:TX:a:i:t=Solo	!	!	!	!	!	!	!	!	!	!	!	!	!
4C/	.	.	4cc\	.	8ee\L	.	4C/	-rum	4c\	-rum	4g\	-rum	4ee\	-rum	.	4e/	.	4cc\
.	.	.	.	.	8dd\	.	.	.	.	.	.	.	.	.	.	.	.	.
!LO:TX:a:i:t=Solo	!	!	!	!	!	!	!	!	!	!	!	!	!	!	!	!	!	!
4r	.	.	4r	.	8ee\	.	4r	.	4r	.	4r	.	4r	.	.	4r	.	4r
.	.	.	.	.	8ff\J	.	.	.	.	.	.	.	.	.	.	.	.	.
4r	.	.	4r	.	8gg\L	.	2r	.	2r	.	2r	.	2r	.	.	2r	.	2r
.	.	.	.	.	8ee\	.	.	.	.	.	.	.	.	.	.	.	.	.
!	!	!LO:DY:a:rj	!LO:TX:a:i:t=Solo	!	!	!	!	!	!	!	!	!	!	!	!	!	!	!
4c\	3	p	4e/	.	8dd\	.	.	.	.	.	.	.	.	.	.	.	.	.
.	.	.	.	.	8cc\J	.	.	.	.	.	.	.	.	.	.	.	.	.
!	!	!	!	!	!LO:LB:g=original	!	!	!	!	!	!	!	!	!	!	!	!	!
=97	=97	=97	=97	=97	=97	=97	=97	=97	=97	=97	=97	=97	=97	=97	=97	=97	=97	=97
!	!	!	!	!	!	!	!	!	!	!	!LO:TX:a:t=3	!	!	!	!	!LO:TX:a:t=38	!	!
4.d\	6\ 3	.	4.f/	.	8b\L	.	00r	.	0r	.	0r	.	00r	.	.	00r	.	00r
.	.	.	.	.	8a\	.	.	.	.	.	.	.	.	.	.	.	.	.
.	.	.	.	.	8b\	.	.	.	.	.	.	.	.	.	.	.	.	.
8c\	3	.	8e/	.	8cc\J	.	.	.	.	.	.	.	.	.	.	.	.	.
4B\	6 3	.	4d/	.	8dd\L	.	.	.	.	.	.	.	.	.	.	.	.	.
.	.	.	.	.	8ee\	.	.	.	.	.	.	.	.	.	.	.	.	.
4B\	_ 3	.	4d/	.	8ff\	.	.	.	.	.	.	.	.	.	.	.	.	.
.	.	.	.	.	8gg\J	.	.	.	.	.	.	.	.	.	.	.	.	.
=98	=98	=98	=98	=98	=98	=98	=98	=98	=98	=98	=98	=98	=98	=98	=98	=98	=98	=98
4.c\	3	.	4.e/	.	8ee\L	.	.	.	.	.	.	.	.	.	.	.	.	.
.	.	.	.	.	8dd\	.	.	.	.	.	.	.	.	.	.	.	.	.
.	.	.	.	.	8cc\	.	.	.	.	.	.	.	.	.	.	.	.	.
8d\	6 3	.	8f/	.	8b\J	.	.	.	.	.	.	.	.	.	.	.	.	.
4e\	6 3	.	4g/	.	8cc\L	.	.	.	.	.	.	.	.	.	.	.	.	.
.	.	.	.	.	8dd\	.	.	.	.	.	.	.	.	.	.	.	.	.
4E\	_ 3	.	4g/	.	8ee\	.	.	.	.	.	.	.	.	.	.	.	.	.
.	.	.	.	.	8cc\J	.	.	.	.	.	.	.	.	.	.	.	.	.
!LO:PB:g=original	!	!	!	!	!	!	!	!	!	!	!	!	!	!	!	!	!	!
=99	=99	=99	=99	=99	=99	=99	=99	=99	=99	=99	=99	=99	=99	=99	=99	=99	=99	=99
4F\	6	.	4.a/	.	8cc#X\L	.	.	.	1r	.	1r	.	.	.	.	.	.	.
.	.	.	.	.	8dd\	.	.	.	.	.	.	.	.	.	.	.	.	.
4F\	.	.	.	.	8ff\	.	.	.	.	.	.	.	.	.	.	.	.	.
.	.	.	8f/	.	8dd\J	.	.	.	.	.	.	.	.	.	.	.	.	.
4G\	6 4	.	8f/L	.	8dd\L	.	.	.	.	.	.	.	.	.	.	.	.	.
.	.	.	8e/	.	8ccn\	.	.	.	.	.	.	.	.	.	.	.	.	.
4GG/	5 3	.	8e/	.	8cc\	.	.	.	.	.	.	.	.	.	.	.	.	.
.	.	.	8d/J	.	8b\J	.	.	.	.	.	.	.	.	.	.	.	.	.
=100	=100	=100	=100	=100	=100	=100	=100	=100	=100	=100	=100	=100	=100	=100	=100	=100	=100	=100
!	!	!	!	!	!	!	!	!	!LO:TX:a:i:t=Solo:rj	!	!	!	!	!	!	!	!	!
4C/	.	.	4e/	.	8cc/L	.	.	.	2.c\	De	2.e\	De	.	.	.	.	.	.
.	.	.	.	.	8g/	.	.	.	.	.	.	.	.	.	.	.	.	.
4r	.	.	8c/L	.	8e/	.	.	.	.	.	.	.	.	.	.	.	.	.
.	.	.	8e/J	.	8g/J	.	.	.	.	.	.	.	.	.	.	.	.	.
*	*	*	*tremolo	*	*	*	*	*	*	*	*	*	*	*	*	*	*	*
4C/	.	.	8c/L	.	8e/L	.	.	.	.	.	.	.	.	.	.	.	.	.
.	.	.	8e/	.	8g/	.	.	.	.	.	.	.	.	.	.	.	.	.
4r	.	.	8c/	.	8e/	.	.	.	8d\L	tor-	8f\L	to-	.	.	.	.	.	.
.	.	.	8e/J	.	8g/J	.	.	.	8e\J	.	8g\J	.	.	.	.	.	.	.
=101	=101	=101	=101	=101	=101	=101	=101	=101	=101	=101	=101	=101	=101	=101	=101	=101	=101	=101
4G\	.	.	8B/L	.	8d/L	.	00r	.	8e\L	-ren-	8g\L	-ren-	00r	.	.	00r	.	00r
.	.	.	8d/	.	8g/	.	.	.	8d\J	.	8f\J	.	.	.	.	.	.	.
4r	.	.	8B/	.	8d/	.	.	.	4d\	-te	4f\	-te	.	.	.	.	.	.
.	.	.	8d/J	.	8g/J	.	.	.	.	.	.	.	.	.	.	.	.	.
*	*	*	*rep	*	*	*	*	*	*	*	*	*	*	*	*	*	*	*
4GG/	.	.	8B/L	.	8d/L	.	.	.	4r	.	4r	.	.	.	.	.	.	.
.	.	.	8d/	.	8g/	.	.	.	.	.	.	.	.	.	.	.	.	.
4r	.	.	8B/	.	8d/	.	.	.	4B\	in	4d\	in	.	.	.	.	.	.
.	.	.	8d/J	.	8g/J	.	.	.	.	.	.	.	.	.	.	.	.	.
*	*	*	*Xrep	*	*	*	*	*	*	*	*	*	*	*	*	*	*	*
=102	=102	=102	=102	=102	=102	=102	=102	=102	=102	=102	=102	=102	=102	=102	=102	=102	=102	=102
4C/	.	.	8c/L	.	8e/L	.	.	.	2.c\	vi-	2.e\	Vi-	.	.	.	.	.	.
.	.	.	8e/	.	8g/	.	.	.	.	.	.	.	.	.	.	.	.	.
4r	.	.	8c/	.	8e/	.	.	.	.	.	.	.	.	.	.	.	.	.
.	.	.	8e/J	.	8g/J	.	.	.	.	.	.	.	.	.	.	.	.	.
*	*	*	*rep	*	*	*	*	*	*	*	*	*	*	*	*	*	*	*
4C/	.	.	8c/L	.	8e/L	.	.	.	.	.	.	.	.	.	.	.	.	.
.	.	.	8e/	.	8g/	.	.	.	.	.	.	.	.	.	.	.	.	.
4r	.	.	8c/	.	8e/	.	.	.	8d\L	-a	8f\L	-a	.	.	.	.	.	.
.	.	.	8e/J	.	8g/J	.	.	.	8e\J	.	8g\J	.	.	.	.	.	.	.
*	*	*	*Xrep	*	*	*	*	*	*	*	*	*	*	*	*	*	*	*
!	!	!	!	!	!LO:LB:g=original	!	!	!	!	!	!LO:LB:g=original	!	!	!	!	!	!	!
=103	=103	=103	=103	=103	=103	=103	=103	=103	=103	=103	=103	=103	=103	=103	=103	=103	=103	=103
4G\	.	.	8B/L	.	8d/L	.	.	.	8e\L	bi-	8g\L	bi-	.	.	.	.	.	.
.	.	.	8d/	.	8g/	.	.	.	8d\J	.	8f\J	.	.	.	.	.	.	.
4r	.	.	8B/	.	8d/	.	.	.	4d\	-bet	4f\	-bet	.	.	.	.	.	.
.	.	.	8d/J	.	8g/J	.	.	.	.	.	.	.	.	.	.	.	.	.
*	*	*	*rep	*	*	*	*	*	*	*	*	*	*	*	*	*	*	*
4GG/	.	.	8B/L	.	8d/L	.	.	.	4r	.	4r	.	.	.	.	.	.	.
.	.	.	8d/	.	8g/	.	.	.	.	.	.	.	.	.	.	.	.	.
4r	.	.	8B/	.	8d/	.	.	.	4B\	prop-	4d\	pro-	.	.	.	.	.	.
.	.	.	8d/J	.	8g/J	.	.	.	.	.	.	.	.	.	.	.	.	.
*	*	*	*Xrep	*	*	*	*	*	*	*	*	*	*	*	*	*	*	*
!	!	!	!	!	!	!	!	!	!LO:LB:g=original	!	!	!	!	!	!	!	!	!
=104	=104	=104	=104	=104	=104	=104	=104	=104	=104	=104	=104	=104	=104	=104	=104	=104	=104	=104
4C/	.	.	8c/L	.	8e/L	.	.	.	2c\	-te-	2e\	-pte-	.	.	.	.	.	.
.	.	.	8e/	.	8g/	.	.	.	.	.	.	.	.	.	.	.	.	.
4c\	.	.	8c/	.	8e/	.	.	.	.	.	.	.	.	.	.	.	.	.
.	.	.	8e/J	.	8g/J	.	.	.	.	.	.	.	.	.	.	.	.	.
*	*	*	*Xtremolo	*	*	*	*	*	*	*	*	*	*	*	*	*	*	*
4C/	.	.	4e/	.	4e/	.	.	.	8c\L	-re-	8e\L	-re-	.	.	.	.	.	.
.	.	.	.	.	.	.	.	.	8B\J	.	8d\	.	.	.	.	.	.	.
4r	.	.	4r	.	4r	.	.	.	8c\L	-a	8e\	-a	.	.	.	.	.	.
.	.	.	.	.	.	.	.	.	8d\J	.	8f\J	.	.	.	.	.	.	.
=105	=105	=105	=105	=105	=105	=105	=105	=105	=105	=105	=105	=105	=105	=105	=105	=105	=105	=105
!	!	!	!	!LO:DY:b:t=f&colon;	!	!	!	!	!	!	!	!	!	!	!	!	!	!
4C/	.	.	4.ee\	f	4.gg\	.	00r	.	4.e\	e-	4.g\	ex-	00r	.	.	00r	.	00r
4c\	.	.	.	.	.	.	.	.	.	.	.	.	.	.	.	.	.	.
.	.	.	8dd\	.	8ff\	.	.	.	8d\	-xal-	8f\	-al-	.	.	.	.	.	.
4C/	.	.	4cc\	.	4ee\	.	.	.	8c\L	-ta-	8e\L	-ta-	.	.	.	.	.	.
.	.	.	.	.	.	.	.	.	8B\	.	8d\J	.	.	.	.	.	.	.
4r	.	.	4r	.	4r	.	.	.	8c\	.	8e\L	.	.	.	.	.	.	.
.	.	.	.	.	.	.	.	.	8d\J	.	8f\J	.	.	.	.	.	.	.
=106	=106	=106	=106	=106	=106	=106	=106	=106	=106	=106	=106	=106	=106	=106	=106	=106	=106	=106
4C/	.	.	4.ee\	.	4.gg\	.	.	.	4.e\	.	4.g\	.	.	.	.	.	.	.
4c\	.	.	.	.	.	.	.	.	.	.	.	.	.	.	.	.	.	.
.	.	.	8dd\	.	8ff\	.	.	.	8d\	.	8f\	.	.	.	.	.	.	.
4C/	.	.	4cc\	.	4ee\	.	.	.	8c\L	.	8e\L	.	.	.	.	.	.	.
.	.	.	.	.	.	.	.	.	8B\	.	8d\	.	.	.	.	.	.	.
4r	.	.	4r	.	4r	.	.	.	8c\	.	8e\	.	.	.	.	.	.	.
!	!	!	!	!	!	!	!	!	!	!	!LO:TX:b:i:t=Verte.	!	!	!	!	!	!	!
.	.	.	.	.	.	.	.	.	8d\J	.	8f\J	.	.	.	.	.	.	.
!	!	!	!	!	!	!	!	!	!	!	!LO:PB:g=original	!	!	!	!	!	!	!
=107	=107	=107	=107	=107	=107	=107	=107	=107	=107	=107	=107	=107	=107	=107	=107	=107	=107	=107
4r	.	.	4.ee\	.	4.gg\	.	.	.	4.e\	.	4.g\	.	.	.	.	.	.	.
4C/	.	.	.	.	.	.	.	.	.	.	.	.	.	.	.	.	.	.
.	.	.	16ff\LL	.	16aa\LL	.	.	.	16f\LL	.	16a\LL	.	.	.	.	.	.	.
.	.	.	16gg\JJ	.	16bb\JJ	.	.	.	16g\JJ	.	16b\JJ	.	.	.	.	.	.	.
4C/	.	.	8aa\L	.	8ccc\L	.	.	.	8a\L	.	8cc\L	.	.	.	.	.	.	.
.	.	.	8gg\	.	8bb\	.	.	.	8g\	.	8b\	.	.	.	.	.	.	.
4C/	.	.	8ff\	.	8aa\	.	.	.	8f\	.	8a\	.	.	.	.	.	.	.
.	.	.	8ee\J	.	8gg\J	.	.	.	8e\J	.	8g#X\J	.	.	.	.	.	.	.
!LO:LB:g=original	!	!	!	!	!	!	!	!	!LO:LB:g=original	!	!	!	!	!	!	!	!	!
=108	=108	=108	=108	=108	=108	=108	=108	=108	=108	=108	=108	=108	=108	=108	=108	=108	=108	=108
1F	.	.	8ff\L	.	8aa\L	.	.	.	8f\L	.	8a\L	.	.	.	.	.	.	.
.	.	.	8ee\	.	8gg#X\	.	.	.	8e\	.	8g#X\	.	.	.	.	.	.	.
.	.	.	8ff\	.	8aa\	.	.	.	8f\	.	8a\	.	.	.	.	.	.	.
.	.	.	8ee\J	.	8gg#\J	.	.	.	8e\J	.	8g#\J	.	.	.	.	.	.	.
.	.	.	8ff\L	.	8aa\L	.	.	.	8f\L	.	8a\L	.	.	.	.	.	.	.
.	.	.	8ee\	.	8ggn\	.	.	.	8e\J	.	8g#X\J	.	.	.	.	.	.	.
.	.	.	8dd\	.	8ff\	.	.	.	8d\L	-vit	8f\L	-bit	.	.	.	.	.	.
.	.	.	8cc\J	.	8ee\J	.	.	.	8c\J	.	8e\J	.	.	.	.	.	.	.
!	!	!	!	!	!LO:LB:g=original	!	!	!	!	!	!	!	!	!	!	!	!	!
=109	=109	=109	=109	=109	=109	=109	=109	=109	=109	=109	=109	=109	=109	=109	=109	=109	=109	=109
4G\	4	.	2cc\	.	1dd	.	00r	.	2c\	Ca-	1d	Ca-	00r	.	.	00r	.	00r
4G\	.	.	.	.	.	.	.	.	.	.	.	.	.	.	.	.	.	.
4GG/	3	.	2b\	.	.	.	.	.	2B\	.	.	.	.	.	.	.	.	.
4GG/	.	.	.	.	.	.	.	.	.	.	.	.	.	.	.	.	.	.
=110	=110	=110	=110	=110	=110	=110	=110	=110	=110	=110	=110	=110	=110	=110	=110	=110	=110	=110
!	!	!	!	!	!LO:TX:a:i:t=Solo	!	!	!	!	!	!	!	!	!	!	!	!	!
4C/	.	.	4cc\	.	4ee\	.	.	.	4c\	-put	4e\	-put	.	.	.	.	.	.
4C/	.	.	4g/	.	4r	.	.	.	4r	.	4r	.	.	.	.	.	.	.
2r	.	.	2r	.	8ee\L	.	.	.	2r	.	2r	.	.	.	.	.	.	.
.	.	.	.	.	8dd\	.	.	.	.	.	.	.	.	.	.	.	.	.
.	.	.	.	.	8ee\	.	.	.	.	.	.	.	.	.	.	.	.	.
.	.	.	.	.	8ff#X\J	.	.	.	.	.	.	.	.	.	.	.	.	.
!	!	!	!LO:LB:g=original	!	!	!	!	!	!	!	!	!	!	!	!	!	!	!
=111	=111	=111	=111	=111	=111	=111	=111	=111	=111	=111	=111	=111	=111	=111	=111	=111	=111	=111
(<1BB	6	.	1G 1d	.	8gg\L	.	.	.	00r	.	00r	.	.	.	.	.	.	.
.	.	.	.	.	8ff\	.	.	.	.	.	.	.	.	.	.	.	.	.
.	.	.	.	.	8aa\	.	.	.	.	.	.	.	.	.	.	.	.	.
.	.	.	.	.	8gg\J	.	.	.	.	.	.	.	.	.	.	.	.	.
.	.	.	.	.	8ff#X\L	.	.	.	.	.	.	.	.	.	.	.	.	.
.	.	.	.	.	8ffn\	.	.	.	.	.	.	.	.	.	.	.	.	.
.	.	.	.	.	8ee\	.	.	.	.	.	.	.	.	.	.	.	.	.
.	.	.	.	.	8dd\J	.	.	.	.	.	.	.	.	.	.	.	.	.
=112	=112	=112	=112	=112	=112	=112	=112	=112	=112	=112	=112	=112	=112	=112	=112	=112	=112	=112
1C	.	.	1G 1e	.	8dd\L	.	.	.	.	.	.	.	.	.	.	.	.	.
.	.	.	.	.	8cc\	.	.	.	.	.	.	.	.	.	.	.	.	.
.	.	.	.	.	8b\	.	.	.	.	.	.	.	.	.	.	.	.	.
.	.	.	.	.	8cc\J	.	.	.	.	.	.	.	.	.	.	.	.	.
.	.	.	.	.	8dd\L	.	.	.	.	.	.	.	.	.	.	.	.	.
.	.	.	.	.	8ee\	.	.	.	.	.	.	.	.	.	.	.	.	.
.	.	.	.	.	8ff\	.	.	.	.	.	.	.	.	.	.	.	.	.
.	.	.	.	.	8ff#X\J	.	.	.	.	.	.	.	.	.	.	.	.	.
=113	=113	=113	=113	=113	=113	=113	=113	=113	=113	=113	=113	=113	=113	=113	=113	=113	=113	=113
1BB	6	.	1G 1d	.	8gg\L	.	00r	.	.	.	.	.	0r	.	.	00r	.	00r
.	.	.	.	.	8ff#X\	.	.	.	.	.	.	.	.	.	.	.	.	.
.	.	.	.	.	8aa\	.	.	.	.	.	.	.	.	.	.	.	.	.
.	.	.	.	.	8gg\J	.	.	.	.	.	.	.	.	.	.	.	.	.
.	.	.	.	.	8ff#\L	.	.	.	.	.	.	.	.	.	.	.	.	.
.	.	.	.	.	8ffn\	.	.	.	.	.	.	.	.	.	.	.	.	.
.	.	.	.	.	8ee\	.	.	.	.	.	.	.	.	.	.	.	.	.
.	.	.	.	.	8dd\J	.	.	.	.	.	.	.	.	.	.	.	.	.
=114	=114	=114	=114	=114	=114	=114	=114	=114	=114	=114	=114	=114	=114	=114	=114	=114	=114	=114
2C/	.	.	2G/ 2e	.	8dd\L	.	.	.	.	.	.	.	.	.	.	.	.	.
.	.	.	.	.	8cc\	.	.	.	.	.	.	.	.	.	.	.	.	.
.	.	.	.	.	8b\	.	.	.	.	.	.	.	.	.	.	.	.	.
.	.	.	.	.	8cc\J	.	.	.	.	.	.	.	.	.	.	.	.	.
4C/)	.	.	4G/ 4e	.	4cc\	.	.	.	.	.	.	.	.	.	.	.	.	.
4r	.	.	4r	.	4r	.	.	.	.	.	.	.	.	.	.	.	.	.
!	!	!	!	!	!	!	!	!	!	!	!	!	!LO:LB:g=original	!	!	!	!	!
=115	=115	=115	=115	=115	=115	=115	=115	=115	=115	=115	=115	=115	=115	=115	=115	=115	=115	=115
!	!	!	!	!	!	!	!	!	!	!	!	!	!LO:TX:a:i:t=Solo.	!	!	!	!	!
1C	3	.	1e	.	8cc\L	.	.	.	00r	.	00r	.	8cc\L	Glo-	.	.	.	.
.	.	.	.	.	8b\	.	.	.	.	.	.	.	8b\	.	.	.	.	.
.	.	.	.	.	8cc\	.	.	.	.	.	.	.	8cc\	.	.	.	.	.
.	.	.	.	.	8b\J	.	.	.	.	.	.	.	8b\J	.	.	.	.	.
.	.	.	.	.	8cc\L	.	.	.	.	.	.	.	8cc\L	.	.	.	.	.
.	.	.	.	.	8dd\	.	.	.	.	.	.	.	8dd\J	.	.	.	.	.
.	.	.	.	.	8ee\	.	.	.	.	.	.	.	8ee\L	-ri-	.	.	.	.
.	.	.	.	.	8cc\J	.	.	.	.	.	.	.	8cc\J	-a	.	.	.	.
!	!	!	!	!	!LO:LB:g=original	!	!	!	!	!	!	!	!	!	!	!	!	!
=116	=116	=116	=116	=116	=116	=116	=116	=116	=116	=116	=116	=116	=116	=116	=116	=116	=116	=116
8D/L	6_ 3	.	8f/L	.	4.b\	.	.	.	.	.	.	.	4.b\	pa-	.	.	.	.
8C/	_ 3	.	8e/	.	.	.	.	.	.	.	.	.	.	.	.	.	.	.
8D/	_ 3	.	8f/	.	.	.	.	.	.	.	.	.	.	.	.	.	.	.
8C/J	_ 3	.	8e/J	.	16dd\LL	.	.	.	.	.	.	.	16dd\LL	.	.	.	.	.
.	.	.	.	.	16cc\JJ	.	.	.	.	.	.	.	16cc\JJ	.	.	.	.	.
8D/L	_ 3	.	8f/L	.	4b\	.	.	.	.	.	.	.	4b\	-tri	.	.	.	.
8E/	_ 3	.	8g/	.	.	.	.	.	.	.	.	.	.	.	.	.	.	.
8D/	_ 3	.	8f/	.	4r	.	.	.	.	.	.	.	4r	.	.	.	.	.
8C/J	_ 3	.	8e/J	.	.	.	.	.	.	.	.	.	.	.	.	.	.	.
=117	=117	=117	=117	=117	=117	=117	=117	=117	=117	=117	=117	=117	=117	=117	=117	=117	=117	=117
1BB	6 3	.	1d	.	8dd\L	.	00r	.	.	.	.	.	8dd\L	glo-	.	00r	.	00r
.	.	.	.	.	8ff\	.	.	.	.	.	.	.	8ff\	.	.	.	.	.
.	.	.	.	.	8ee\	.	.	.	.	.	.	.	8ee\	.	.	.	.	.
.	.	.	.	.	8ff\J	.	.	.	.	.	.	.	8ff\J	.	.	.	.	.
.	.	.	.	.	8gg\L	.	.	.	.	.	.	.	8gg\L	-ri-	.	.	.	.
.	.	.	.	.	8ff\	.	.	.	.	.	.	.	8ff\J	.	.	.	.	.
.	.	.	.	.	8ee\	.	.	.	.	.	.	.	8ee\L	-a	.	.	.	.
.	.	.	.	.	8dd\J	.	.	.	.	.	.	.	8dd\J	.	.	.	.	.
=118	=118	=118	=118	=118	=118	=118	=118	=118	=118	=118	=118	=118	=118	=118	=118	=118	=118	=118
8C/L	3	.	8e/L	.	4.cc\	.	.	.	.	.	.	.	4.cc\	fi-	.	.	.	.
8BB/	3	.	8d/	.	.	.	.	.	.	.	.	.	.	.	.	.	.	.
8C/	3	.	8e/	.	.	.	.	.	.	.	.	.	.	.	.	.	.	.
8BB/J	3	.	8d/J	.	16ee\LL	.	.	.	.	.	.	.	16ee\LL	-li-	.	.	.	.
.	.	.	.	.	16dd\JJ	.	.	.	.	.	.	.	16dd\JJ	.	.	.	.	.
!LO:LB:g=original	!	!	!	!	!	!	!	!	!	!	!	!	!	!	!	!	!	!
=-	=-	=-	=-	=-	=-	=-	=-	=-	=-	=-	=-	=-	=-	=-	=-	=-	=-	=-
8C/L	3	.	8e/L	.	4cc\	.	.	.	.	.	.	.	4cc\	-o	.	.	.	.
8BB/	3	.	8d/	.	.	.	.	.	.	.	.	.	.	.	.	.	.	.
8C/	3	.	8e/	.	4r	.	.	.	.	.	.	.	4r	.	.	.	.	.
8D/J	3	.	8f/J	.	.	.	.	.	.	.	.	.	.	.	.	.	.	.
!	!	!	!	!	!	!	!	!	!	!	!	!	!LO:LB:g=original	!	!	!	!	!
=119	=119	=119	=119	=119	=119	=119	=119	=119	=119	=119	=119	=119	=119	=119	=119	=119	=119	=119
1E	6 3	.	1g	.	8cc\L	.	.	.	00r	.	00r	.	8cc\L	Glo-	.	.	.	.
.	.	.	.	.	8ee\	.	.	.	.	.	.	.	8ee\	.	.	.	.	.
.	.	.	.	.	8gg\	.	.	.	.	.	.	.	8gg\	.	.	.	.	.
.	.	.	.	.	8ff\J	.	.	.	.	.	.	.	8ff\J	.	.	.	.	.
.	.	.	.	.	8ee\L	.	.	.	.	.	.	.	8ee\L	.	.	.	.	.
.	.	.	.	.	8dd\	.	.	.	.	.	.	.	8dd\	.	.	.	.	.
.	.	.	.	.	8cc\	.	.	.	.	.	.	.	8cc\	.	.	.	.	.
.	.	.	.	.	8b-X\J	.	.	.	.	.	.	.	8b-X\J	.	.	.	.	.
=120	=120	=120	=120	=120	=120	=120	=120	=120	=120	=120	=120	=120	=120	=120	=120	=120	=120	=120
1F	3	.	1c	.	8a/L	.	.	.	.	.	.	.	8a\L	.	.	.	.	.
.	.	.	.	.	8g#X/	.	.	.	.	.	.	.	8g#X\J	.	.	.	.	.
.	.	.	.	.	8a/	.	.	.	.	.	.	.	8a\L	-ri-	.	.	.	.
.	.	.	.	.	8g#/J	.	.	.	.	.	.	.	8g#\J	.	.	.	.	.
.	.	.	.	.	4a/	.	.	.	.	.	.	.	4a\	-a	.	.	.	.
.	.	.	.	.	8bn\L	.	.	.	.	.	.	.	8bn\L	et	.	.	.	.
.	.	.	.	.	8cc#X\J	.	.	.	.	.	.	.	8cc#X\J	.	.	.	.	.
=121	=121	=121	=121	=121	=121	=121	=121	=121	=121	=121	=121	=121	=121	=121	=121	=121	=121	=121
2.G\	6	.	1a	.	8dd\L	.	00r	.	.	.	.	.	8dd\L	Spi-	.	00r	.	00r
.	.	.	.	.	8ff\	.	.	.	.	.	.	.	8ff\J	.	.	.	.	.
.	.	.	.	.	8aa\	.	.	.	.	.	.	.	8aa\L	-ri-	.	.	.	.
.	.	.	.	.	8gg\J	.	.	.	.	.	.	.	8gg\J	.	.	.	.	.
.	.	.	.	.	8ff\L	.	.	.	.	.	.	.	8ff\L	-tu-	.	.	.	.
.	.	.	.	.	8ee\	.	.	.	.	.	.	.	8ee\J	.	.	.	.	.
4F#X\	6 5	.	.	.	8dd\	.	.	.	.	.	.	.	8dd\L	-i	.	.	.	.
.	.	.	.	.	8cc\J	.	.	.	.	.	.	.	8ccn\J	.	.	.	.	.
!	!	!	!	!	!LO:LB:g=original	!	!	!	!	!	!	!	!	!	!	!	!	!
=122	=122	=122	=122	=122	=122	=122	=122	=122	=122	=122	=122	=122	=122	=122	=122	=122	=122	=122
4G\	4	.	2e/	.	8dd\L	.	.	.	.	.	.	.	8dd\L	San-	.	.	.	.
.	.	.	.	.	8cc\	.	.	.	.	.	.	.	8cc\	.	.	.	.	.
4GG/	.	.	.	.	8b\	.	.	.	.	.	.	.	8b\	.	.	.	.	.
.	.	.	.	.	8cc\J	.	.	.	.	.	.	.	8cc\J	.	.	.	.	.
!	!	!	!	!	!	!	!	!	!	!	!	!	!LO:TX:b:i:t=Verte	!	!	!	!	!
8G\L	3	.	4d/	.	4b\	.	.	.	.	.	.	.	4b\	-cto	.	.	.	.
8Fn\	.	.	.	.	.	.	.	.	.	.	.	.	.	.	.	.	.	.
8E\	.	.	4r	.	4r	.	.	.	.	.	.	.	4r	.	.	.	.	.
8D\J	.	.	.	.	.	.	.	.	.	.	.	.	.	.	.	.	.	.
!	!	!	!LO:LB:g=original	!	!	!	!	!	!	!	!	!	!LO:PB:g=original	!	!	!	!	!
=123	=123	=123	=123	=123	=123	=123	=123	=123	=123	=123	=123	=123	=123	=123	=123	=123	=123	=123
!	!	!	!	!	!LO:TX:a:i:t=Solo:rj	!	!	!	!	!	!	!	!LO:TX:a:t=4	!	!	!	!	!
4C/	.	.	2r	.	8r	.	.	.	00r	.	00r	.	00r	.	.	.	.	.
.	.	.	.	.	8cc\L	.	.	.	.	.	.	.	.	.	.	.	.	.
4r	.	.	.	.	8ee\	.	.	.	.	.	.	.	.	.	.	.	.	.
.	.	.	.	.	8gg\J	.	.	.	.	.	.	.	.	.	.	.	.	.
2r	.	.	8r	.	8aa\L	.	.	.	.	.	.	.	.	.	.	.	.	.
!	!	!	!LO:TX:a:i:t=Solo	!	!	!	!	!	!	!	!	!	!	!	!	!	!	!
.	.	.	8A/L	.	8ff\J	.	.	.	.	.	.	.	.	.	.	.	.	.
.	.	.	8d/	.	[4dd\	.	.	.	.	.	.	.	.	.	.	.	.	.
.	.	.	8f/J	.	.	.	.	.	.	.	.	.	.	.	.	.	.	.
=124	=124	=124	=124	=124	=124	=124	=124	=124	=124	=124	=124	=124	=124	=124	=124	=124	=124	=124
!	!	!	!	!	!LO:N:xstem:cue	!	!	!	!	!	!	!	!	!	!	!	!	!
0r	.	.	4.g/	.	8dd\]	.	.	.	.	.	.	.	.	.	.	.	.	.
.	.	.	.	.	8b\	.	.	.	.	.	.	.	.	.	.	.	.	.
.	.	.	.	.	4.gg\	.	.	.	.	.	.	.	.	.	.	.	.	.
.	.	.	8B/	.	.	.	.	.	.	.	.	.	.	.	.	.	.	.
.	.	.	4.c/	.	.	.	.	.	.	.	.	.	.	.	.	.	.	.
.	.	.	.	.	8ee\	.	.	.	.	.	.	.	.	.	.	.	.	.
.	.	.	.	.	[4cc\	.	.	.	.	.	.	.	.	.	.	.	.	.
.	.	.	8e/	.	.	.	.	.	.	.	.	.	.	.	.	.	.	.
=125	=125	=125	=125	=125	=125	=125	=125	=125	=125	=125	=125	=125	=125	=125	=125	=125	=125	=125
!	!	!	!	!	!LO:N:xstem:cue	!	!	!	!	!	!	!	!	!	!	!	!	!
.	.	.	4.f/	.	8cc\]	.	0r	.	.	.	.	.	.	.	.	00r	.	00r
.	.	.	.	.	8a/	.	.	.	.	.	.	.	.	.	.	.	.	.
.	.	.	.	.	4.ff\	.	.	.	.	.	.	.	.	.	.	.	.	.
.	.	.	8d/	.	.	.	.	.	.	.	.	.	.	.	.	.	.	.
.	.	.	4.g/	.	.	.	.	.	.	.	.	.	.	.	.	.	.	.
.	.	.	.	.	8dd\	.	.	.	.	.	.	.	.	.	.	.	.	.
.	.	.	.	.	[4b\	.	.	.	.	.	.	.	.	.	.	.	.	.
.	.	.	8f/	.	.	.	.	.	.	.	.	.	.	.	.	.	.	.
=126	=126	=126	=126	=126	=126	=126	=126	=126	=126	=126	=126	=126	=126	=126	=126	=126	=126	=126
!	!	!	!	!	!LO:N:xstem:cue	!	!	!	!	!	!	!	!	!	!	!	!	!
4r	.	.	4.e/	.	8b\]	.	.	.	.	.	.	.	.	.	.	.	.	.
.	.	.	.	.	8g/	.	.	.	.	.	.	.	.	.	.	.	.	.
4C/	.	.	.	.	4.cc\	.	.	.	.	.	.	.	.	.	.	.	.	.
.	.	.	16f/LL	.	.	.	.	.	.	.	.	.	.	.	.	.	.	.
.	.	.	16e/JJ	.	.	.	.	.	.	.	.	.	.	.	.	.	.	.
4F\	6 5	.	2d/	.	.	.	.	.	.	.	.	.	.	.	.	.	.	.
.	.	.	.	.	16dd\LL	.	.	.	.	.	.	.	.	.	.	.	.	.
.	.	.	.	.	16cc\JJ	.	.	.	.	.	.	.	.	.	.	.	.	.
4G\	3	.	.	.	8b\L	.	.	.	.	.	.	.	.	.	.	.	.	.
.	.	.	.	.	8dd\J	.	.	.	.	.	.	.	.	.	.	.	.	.
!	!	!	!	!	!LO:LB:g=original	!	!	!	!	!	!	!	!	!	!	!	!	!
=127	=127	=127	=127	=127	=127	=127	=127	=127	=127	=127	=127	=127	=127	=127	=127	=127	=127	=127
4C/	.	.	4e/	.	4cc\	.	4C/	Si-	2c\	Si-	2.g\	Si-	2.ee\	Si-	.	.	.	.
4E\	9 7	.	4r	.	4r	.	4E\	-cut	.	.	.	.	.	.	.	.	.	.
2F\	8 6	.	2r	.	2r	.	2F\	E-	2A\	-cut	.	.	.	.	.	.	.	.
.	.	.	.	.	.	.	.	.	.	.	4f\	-cut	4dd\	-cut	.	.	.	.
!LO:LB:g=original	!	!	!	!	!	!	!LO:LB:g=original	!	!	!	!LO:LB:g=original	!	!	!	!	!	!	!
=128	=128	=128	=128	=128	=128	=128	=128	=128	=128	=128	=128	=128	=128	=128	=128	=128	=128	=128
!	!	!	!	!	!LO:TX:a:t=2	!	!	!	!	!	!	!	!	!	!	!	!	!
4G\	7 5	.	0r	.	0r	.	4G\	-rat	2B\	e-	2.f\	e-	2.dd\	e-	.	.	.	.
*	*	*	*	*	*	*	*	*ij	*	*	*	*	*	*	*	*	*	*
4F\	_ _	.	.	.	.	.	4F\	E-	.	.	.	.	.	.	.	.	.	.
2E\	9 7	.	.	.	.	.	2E\	-rat	2G/	-rat	.	.	.	.	.	.	.	.
*	*	*	*	*	*	*	*	*Xij	*	*	*	*	*	*	*	*	*	*
.	8 6	.	.	.	.	.	.	.	.	.	4e\	-rat	4cc\	-rat	.	.	.	.
!	!	!	!	!	!	!	!	!	!LO:LB:g=original	!	!	!	!	!	!	!	!	!
=129	=129	=129	=129	=129	=129	=129	=129	=129	=129	=129	=129	=129	=129	=129	=129	=129	=129	=129
!	!	!	!	!	!	!	!	!	!	!	!LO:TX:t=P:problem=jeden wykreślony takt	!	!	!	!	!	!	!
2F\	6 5	.	.	.	.	.	4F\	in	4A/	in	4e\	in	4cc\	in	.	00r	.	0r
.	.	.	.	.	.	.	4F\	prin-	4A/	prin-	4e\	prin-	4cc\	prin-	.	.	.	.
2G\	3	.	.	.	.	.	4.G\	-ci-	4.G/	-ci-	4.d\	-ci-	4.b\	-ci-	.	.	.	.
.	.	.	.	.	.	.	8G\	-pi-	8G/	-pi-	8d\	-pi-	8b\	-pi-	.	.	.	.
=130	=130	=130	=130	=130	=130	=130	=130	=130	=130	=130	=130	=130	=130	=130	=130	=130	=130	=130
4C/	.	.	8r	.	8r	.	4C/	-o	4G/	-o	4e\	-o	4cc\	-o	.	.	.	.
.	.	.	8e/L	.	8ee\L	.	.	.	.	.	.	.	.	.	.	.	.	.
4r	.	.	8d#X/	.	8dd#X\	.	4r	.	4r	.	4r	.	4r	.	.	.	.	.
.	.	.	8e/J	.	8ee\J	.	.	.	.	.	.	.	.	.	.	.	.	.
2r	.	.	8d#/L	.	8dd#\L	.	2r	.	2r	.	2r	.	2r	.	.	.	.	.
.	.	.	8e/	.	8ee\	.	.	.	.	.	.	.	.	.	.	.	.	.
.	.	.	8dn/	.	8ff\	.	.	.	.	.	.	.	.	.	.	.	.	.
.	.	.	8c/J	.	8ff#X\J	.	.	.	.	.	.	.	.	.	.	.	.	.
!	!	!	!	!	!	!	!	!	!	!	!	!	!	!	!	!	!	!LO:LB:g=original
=131	=131	=131	=131	=131	=131	=131	=131	=131	=131	=131	=131	=131	=131	=131	=131	=131	=131	=131
!	!	!	!	!	!	!	!	!	!	!	!	!	!	!	!	!	!	!LO:TX:t=P:problem=brak czterech taktów pauzy
2.G\	3	.	4B/	.	4gg\	.	2.G\	e(t)	2d\	(et)	2g\	e(t)	2b\	et	.	.	.	1ryy
.	.	.	4r	.	4r	.	.	.	.	.	.	.	.	.	.	.	.	.
.	4 2	.	2r	.	2r	.	.	.	4e\	nunc	2a\	nunc	4cc\	nunc	.	.	.	.
4F\	6 5	.	.	.	.	.	4F\	.	4c\	(et)	.	.	4dd\	et	.	.	.	.
=132	=132	=132	=132	=132	=132	=132	=132	=132	=132	=132	=132	=132	=132	=132	=132	=132	=132	=132
4F\	46 25	.	0r	.	0r	.	4F\	.	4d\	Sem-	2g\	e(t)	4b\	Sem-	.	.	.	1ryy
2E\	42	.	.	.	.	.	2E\	nunc	4B\	.	.	.	4cc\	.	.	.	.	.
.	.	.	.	.	.	.	.	.	4c\	.	2f\	ſem-	4a\	.	.	.	.	.
4D\	65	.	.	.	.	.	4D\	e(t)	4A\	.	.	.	4b\	.	.	.	.	.
!	!	!	!	!	!	!	!	!	!	!	!LO:LB:g=original	!	!LO:LB:g=original	!	!	!	!	!
=133	=133	=133	=133	=133	=133	=133	=133	=133	=133	=133	=133	=133	=133	=133	=133	=133	=133	=133
4D\	4 2	.	.	.	.	.	4D/	Sem-	4B\	.	2e\	.	1g	.	.	0r	.	1ryy
4C/	_ _	.	.	.	.	.	4C/	.	4c\	.	.	.	.	.	.	.	.	.
4BB/	6 5	.	.	.	.	.	4BB/	.	4d\	.	4f\	.	.	.	.	.	.	.
4C/	.	.	.	.	.	.	4C/	.	4c\	.	4e\	.	.	.	.	.	.	.
!	!	!	!	!	!	!	!LO:LB:g=original	!	!	!	!	!	!	!	!	!	!	!
=134	=134	=134	=134	=134	=134	=134	=134	=134	=134	=134	=134	=134	=134	=134	=134	=134	=134	=134
4GG/	.	.	8r	.	8r	.	4G\	-per	4B\	-per	4d\	-per	4g\	-per	.	.	.	1ryy
.	.	.	8g/L	.	8gg\L	.	.	.	.	.	.	.	.	.	.	.	.	.
4r	.	.	8f#X/	.	8ff#X\	.	4r	.	4r	.	4r	.	4r	.	.	.	.	.
.	.	.	8g/J	.	8gg\J	.	.	.	.	.	.	.	.	.	.	.	.	.
!	!	!	!	!	!	!	!	!	!LO:TX:b:i:t=Verte	!	!	!	!	!	!	!	!	!
2r	.	.	8f#/L	.	8ff#\L	.	2r	.	2r	.	2r	.	2r	.	.	.	.	.
.	.	.	8g/	.	8gg\	.	.	.	.	.	.	.	.	.	.	.	.	.
.	.	.	8a/	.	8ff#\	.	.	.	.	.	.	.	.	.	.	.	.	.
.	.	.	8b/J	.	8ffn\J	.	.	.	.	.	.	.	.	.	.	.	.	.
!	!	!	!LO:LB:g=original	!	!	!	!	!	!LO:PB:g=original	!	!	!	!	!	!	!LO:LB:g=original	!	!
=135	=135	=135	=135	=135	=135	=135	=135	=135	=135	=135	=135	=135	=135	=135	=135	=135	=135	=135
!	!	!	!	!	!	!	!	!	!	!	!	!	!	!	!LO:DY:a:rj	!	!	!
4.C/	.	.	4cc\	.	4ee\	.	4.C/	e(t)	2c\	(et)	2g\	(et)	2ee\	e(t)	f	4e/	.	4cc\
.	.	.	8cc\L	.	8ee\L	.	.	.	.	.	.	.	.	.	.	8e/L	.	8cc\L
16D\LL	.	.	8cc\J	.	8ee\J	.	16D\LL	nunc	.	.	.	.	.	.	.	8e/J	.	8cc\J
16E\JJ	.	.	.	.	.	.	16E\JJ	.	.	.	.	.	.	.	.	.	.	.
8F\L	.	.	4cc\	.	4ee\	.	8F\L	e(t)	4c\	nunc	4g\	nunc	4ee\	nunc	.	4e/	.	4cc\
8G\	.	.	.	.	.	.	8G\J	.	.	.	.	.	.	.	.	.	.	.
8A\	.	.	4r	.	4r	.	8A\L	Sem-	4c\	(et)	4g\	(et)	4ee\	et	.	4e/	.	4cc\
8B\J	.	.	.	.	.	.	8B\J	.	.	.	.	.	.	.	.	.	.	.
!LO:LB:g=original	!	!	!	!	!LO:LB:g=original	!	!	!	!	!	!	!	!	!	!	!	!	!
=136	=136	=136	=136	=136	=136	=136	=136	=136	=136	=136	=136	=136	=136	=136	=136	=136	=136	=136
4c\	.	.	4c/	.	4e/	.	4c\	.	4c\	Sem-	4g\	Sem-	4ee\	ſem-	.	4e/	.	4cc\
4C/	.	.	8c/L	.	8e/L	.	4C/	-per	4c\	-per	4g\	-per	4ee\	-per	.	4e/	.	4cc\
.	.	.	8c/J	.	8e/J	.	.	.	.	.	.	.	.	.	.	.	.	.
2r	.	.	16c/LL	.	16e/LL	.	2r	.	2r	.	2r	.	2r	.	.	4r	.	2r
.	.	.	16d/	.	16f/	.	.	.	.	.	.	.	.	.	.	.	.	.
.	.	.	16e/	.	16g/	.	.	.	.	.	.	.	.	.	.	.	.	.
.	.	.	16f/JJ	.	16a/JJ	.	.	.	.	.	.	.	.	.	.	.	.	.
.	.	.	16g/LL	.	16b\LL	.	.	.	.	.	.	.	.	.	.	4r	.	.
.	.	.	16a/	.	16cc\	.	.	.	.	.	.	.	.	.	.	.	.	.
.	.	.	16b/	.	16dd\	.	.	.	.	.	.	.	.	.	.	.	.	.
.	.	.	16cc/JJ	.	16ee\JJ	.	.	.	.	.	.	.	.	.	.	.	.	.
=137	=137	=137	=137	=137	=137	=137	=137	=137	=137	=137	=137	=137	=137	=137	=137	=137	=137	=137
*	*	*	*	*	*	*	*	*	*	*ij	*	*ij	*	*ij	*	*	*	*
4.GG/	.	.	4b/	.	4dd\	.	4.GG/	e(t)	2B\	(et)	2g\	(et)	2dd\	e(t)	.	4g/	.	4dd\
.	.	.	8b/L	.	8dd\L	.	.	.	.	.	.	.	.	.	.	8g/L	.	8dd\L
16AA/LL	.	.	8b/J	.	8dd\J	.	16AA/LL	nunc	.	.	.	.	.	.	.	8g/J	.	8dd\J
16BB/JJ	.	.	.	.	.	.	16BB/JJ	.	.	.	.	.	.	.	.	.	.	.
!	!	!	!	!	!	!	!LO:TX:t=P:problem=belka z podwójnej poprawiana na pojedynczą i podpisana "raz"	!	!	!	!	!	!	!	!	!	!	!
8C\L	.	.	4b/	.	4dd\	.	8C/L	et	4B\	nunc	4g\	nunc	4dd\	nunc	.	4g/	.	4dd\
8D\	.	.	.	.	.	.	8D/J	.	.	.	.	.	.	.	.	.	.	.
8E\	.	.	4r	.	4r	.	8E\L	Sem-	4B\	(et)	4g\	(et)	4dd\	et	.	4g/	.	4dd\
8F\J	.	.	.	.	.	.	8F\J	.	.	.	.	.	.	.	.	.	.	.
=138	=138	=138	=138	=138	=138	=138	=138	=138	=138	=138	=138	=138	=138	=138	=138	=138	=138	=138
4G\	.	.	4B/	.	4d/	.	4G\	.	4B\	Sem-	4g\	Sem-	4dd\	ſem-	.	4g/	.	4dd\
4GG/	.	.	8B/L	.	8d/L	.	4GG/	-per	4B\	-per	4g\	-per	4dd\	-per	.	4g/	.	4dd\
*	*	*	*	*	*	*	*	*	*	*Xij	*	*Xij	*	*Xij	*	*	*	*
.	.	.	8B/J	.	8d/J	.	.	.	.	.	.	.	.	.	.	.	.	.
2r	.	.	16B/LL	.	16d/LL	.	2r	.	2r	.	2r	.	2r	.	.	2r	.	2r
.	.	.	16c/	.	16e/	.	.	.	.	.	.	.	.	.	.	.	.	.
.	.	.	16d/	.	16f/	.	.	.	.	.	.	.	.	.	.	.	.	.
.	.	.	16e/JJ	.	16g/JJ	.	.	.	.	.	.	.	.	.	.	.	.	.
.	.	.	16f/LL	.	16a\LL	.	.	.	.	.	.	.	.	.	.	.	.	.
.	.	.	16g/	.	16b\	.	.	.	.	.	.	.	.	.	.	.	.	.
.	.	.	16a/	.	16cc\	.	.	.	.	.	.	.	.	.	.	.	.	.
.	.	.	16b/JJ	.	16dd\JJ	.	.	.	.	.	.	.	.	.	.	.	.	.
!	!	!	!	!	!	!	!LO:PB:g=original	!	!	!	!LO:LB:g=original	!	!LO:LB:g=original	!	!	!	!	!
=139	=139	=139	=139	=139	=139	=139	=139	=139	=139	=139	=139	=139	=139	=139	=139	=139	=139	=139
8c\L	8 3	.	8cc\	.	8ee\	.	2C/	e(t)	2c\	e(t)	2g\	e(t)	2ee\	e(t)	.	1cc	.	1ee
8B\	_ _	.	4ee\	.	4ccc\	.	.	.	.	.	.	.	.	.	.	.	.	.
8c\	.	.	.	.	.	.	.	.	.	.	.	.	.	.	.	.	.	.
8B\J	.	.	4ee\	.	4ccc\	.	.	.	.	.	.	.	.	.	.	.	.	.
8c\L	.	.	.	.	.	.	2c\	in	2c\	in	2g\	in	2ee\	in	.	.	.	.
8d\	.	.	4ee\	.	4ccc\	.	.	.	.	.	.	.	.	.	.	.	.	.
8e\	.	.	.	.	.	.	.	.	.	.	.	.	.	.	.	.	.	.
8c\J	.	.	8ee\	.	8ccc\	.	.	.	.	.	.	.	.	.	.	.	.	.
!	!	!	!	!	!LO:LB:g=original	!	!	!	!	!	!	!	!	!	!	!	!	!
=140	=140	=140	=140	=140	=140	=140	=140	=140	=140	=140	=140	=140	=140	=140	=140	=140	=140	=140
8A\L	.	.	8ee\	.	8ccc\	.	2A\	Se-	2c\	Se-	2a\	Sae-	2ee\	ſe-	.	1cc	.	1ee
8G#X\	.	.	4ee\	.	4ccc\	.	.	.	.	.	.	.	.	.	.	.	.	.
8A\	.	.	.	.	.	.	.	.	.	.	.	.	.	.	.	.	.	.
8G#\J	.	.	4ee\	.	4ccc\	.	.	.	.	.	.	.	.	.	.	.	.	.
8A\L	5 3	.	.	.	.	.	4A\	-cu-	4c\	-cu-	4a\	-cu-	4ee\	-cu-	.	.	.	.
8B\	_ _	.	4ee\	.	4ccc\	.	.	.	.	.	.	.	.	.	.	.	.	.
8c\	.	.	.	.	.	.	4A\	-la	4c\	-la	4a\	-la	4ee\	-la	.	.	.	.
8A\J	.	.	8ee\	.	8ccc\	.	.	.	.	.	.	.	.	.	.	.	.	.
!	!	!	!LO:LB:g=original	!	!	!	!	!	!LO:LB:g=original	!	!	!	!	!	!	!	!	!
=141	=141	=141	=141	=141	=141	=141	=141	=141	=141	=141	=141	=141	=141	=141	=141	=141	=141	=141
8F#X\L	.	.	8ee\	.	8ccc\	.	4F#X\	Se-	4c\	Se-	4a\	Sae-	4ee\	ſe-	.	1cc	.	1ee
8E\	.	.	4ee\	.	4ccc\	.	.	.	.	.	.	.	.	.	.	.	.	.
8F#\	.	.	.	.	.	.	4F#\	-cu-	4c\	-cu-	4a\	-Cu-	4ee\	-cu-	.	.	.	.
8E\J	.	.	4ee\	.	4ccc\	.	.	.	.	.	.	.	.	.	.	.	.	.
8F#\L	.	.	.	.	.	.	2F#\	-lo-	2c\	-lo-	2a\	-lo-	2ee\	-lo-	.	.	.	.
8G\	.	.	4ee\	.	4ccc\	.	.	.	.	.	.	.	.	.	.	.	.	.
8A\	.	.	.	.	.	.	.	.	.	.	.	.	.	.	.	.	.	.
8F#\J	.	.	8ee\	.	8ccc\	.	.	.	.	.	.	.	.	.	.	.	.	.
!LO:LB:g=original	!	!	!	!	!	!	!	!	!	!	!	!	!	!	!	!	!	!
=142	=142	=142	=142	=142	=142	=142	=142	=142	=142	=142	=142	=142	=142	=142	=142	=142	=142	=142
4G\	x x	.	8ee\L	.	8ccc\L	.	4G\	-rum	4c\	-rum	4g\	-rum	4ee\	-rum	.	4cc\	.	4ee\
.	.	.	16gg\L	.	16eee\L	.	.	.	.	.	.	.	.	.	.	.	.	.
.	.	.	16ff\JJ	.	16ddd\JJ	.	.	.	.	.	.	.	.	.	.	.	.	.
4r	.	.	8ee\L	.	8ccc\L	.	4r	.	4r	.	4r	.	4r	.	.	4r	.	4r
.	.	.	16gg\L	.	16eee\L	.	.	.	.	.	.	.	.	.	.	.	.	.
.	.	.	16ff\JJ	.	16ddd\JJ	.	.	.	.	.	.	.	.	.	.	.	.	.
2r	.	.	8ee\L	.	8ccc\L	.	2r	.	2r	.	2r	.	2r	.	.	2r	.	2r
.	.	.	16gg\L	.	16eee\L	.	.	.	.	.	.	.	.	.	.	.	.	.
.	.	.	16ff\JJ	.	16ddd\JJ	.	.	.	.	.	.	.	.	.	.	.	.	.
.	.	.	8ee\L	.	8ccc\L	.	.	.	.	.	.	.	.	.	.	.	.	.
.	.	.	16gg\L	.	16eee\L	.	.	.	.	.	.	.	.	.	.	.	.	.
.	.	.	16ff\JJ	.	16ddd\JJ	.	.	.	.	.	.	.	.	.	.	.	.	.
=143	=143	=143	=143	=143	=143	=143	=143	=143	=143	=143	=143	=143	=143	=143	=143	=143	=143	=143
!LO:TX:a:t=1	!	!	!	!	!	!	!	!	!	!	!	!	!LO:TX:a:t=1	!	!	!LO:TX:a:t=1	!	!
1r	.	.	8ee\L	.	8ccc\L	.	1r	.	1r	.	1r	.	1r	.	.	1r	.	1r
.	.	.	16gg\L	.	16eee\L	.	.	.	.	.	.	.	.	.	.	.	.	.
.	.	.	16ff\JJ	.	16ddd\JJ	.	.	.	.	.	.	.	.	.	.	.	.	.
.	.	.	8ee\L	.	8ccc\L	.	.	.	.	.	.	.	.	.	.	.	.	.
.	.	.	8gg\J	.	16ccc\L	.	.	.	.	.	.	.	.	.	.	.	.	.
.	.	.	.	.	16bb\JJ	.	.	.	.	.	.	.	.	.	.	.	.	.
.	.	.	8ff\L	.	8aa\L	.	.	.	.	.	.	.	.	.	.	.	.	.
.	.	.	8ee\	.	8gg\	.	.	.	.	.	.	.	.	.	.	.	.	.
.	.	.	8dd\	.	8ff\	.	.	.	.	.	.	.	.	.	.	.	.	.
!	!	!	!	!	!LO:TX:b:i:t=Verte	!	!	!	!	!	!	!	!	!	!	!	!	!
.	.	.	8cc\J	.	8ee\J	.	.	.	.	.	.	.	.	.	.	.	.	.
!	!	!	!	!	!LO:PB:g=original	!	!	!	!	!	!	!	!	!	!	!	!	!
=144	=144	=144	=144	=144	=144	=144	=144	=144	=144	=144	=144	=144	=144	=144	=144	=144	=144	=144
8G\L	4_	.	8g/	.	8dd\	.	1G	a-	1c	a-	1g	a-	1dd	a-	.	4g/	.	4dd\
8G\	.	.	4gg\	.	4dd\ 4ccc	.	.	.	.	.	.	.	.	.	.	.	.	.
8G\	.	.	.	.	.	.	.	.	.	.	.	.	.	.	.	8g/L	.	8dd\L
8G\J	.	.	4gg\	.	4dd\ 4ccc	.	.	.	.	.	.	.	.	.	.	8g/J	.	8dd\J
8G\L	.	.	.	.	.	.	.	.	.	.	.	.	.	.	.	4g/	.	4dd\
8G\	.	.	4gg\	.	4dd\ 4ccc	.	.	.	.	.	.	.	.	.	.	.	.	.
8G\	.	.	.	.	.	.	.	.	.	.	.	.	.	.	.	4g/	.	4dd\
8G\J	.	.	8gg\	.	8dd\ 8ccc	.	.	.	.	.	.	.	.	.	.	.	.	.
!	!	!	!	!	!	!	!	!	!	!	!	!	!	!	!	!	!	!LO:LB:g=original
=145	=145	=145	=145	=145	=145	=145	=145	=145	=145	=145	=145	=145	=145	=145	=145	=145	=145	=145
8GG/L	3_	.	8ff\	.	8dd\ 8bb	.	1G	.	1B	.	1g	.	1dd	.	.	4g/	.	4dd\
8GG/	.	.	4ff\	.	4dd\ 4bb	.	.	.	.	.	.	.	.	.	.	.	.	.
8GG/	.	.	.	.	.	.	.	.	.	.	.	.	.	.	.	8g/L	.	8dd\L
8GG/J	.	.	4ff\	.	4dd\ 4bb	.	.	.	.	.	.	.	.	.	.	8g/J	.	8dd\J
8GG/L	.	.	.	.	.	.	.	.	.	.	.	.	.	.	.	4g/	.	4dd\
8GG/	.	.	4ff\	.	4dd\ 4bb	.	.	.	.	.	.	.	.	.	.	.	.	.
8GG/	.	.	.	.	.	.	.	.	.	.	.	.	.	.	.	4g/	.	4dd\
8GG/J	.	.	8ff\	.	8dd\ 8bb	.	.	.	.	.	.	.	.	.	.	.	.	.
!	!	!	!	!	!	!	!	!	!	!	!LO:LB:g=original	!	!	!	!	!LO:LB:g=original	!	!
=146	=146	=146	=146	=146	=146	=146	=146	=146	=146	=146	=146	=146	=146	=146	=146	=146	=146	=146
4C/	x	.	4ee\	.	4ee\ 4ccc	.	4c\	-men	4c\	-men	4g\	-men	2ee\	.	.	4e/	.	4cc\
*	*	*	*	*	*	*	*	*	*	*ij	*	*	*	*	*	*	*	*
4E\	6	.	4ee\ 4ccc	.	4ee\ 4ccc	.	4E\	a-	2c\	a-	4g\	.	.	.	.	4cc\	.	4ee\
4F\	6 5	.	4dd\ 4ccc	.	4dd\ 4ccc	.	4F\	.	.	.	4a\	a-	2dd\	-men	.	4cc\	.	4dd\
4G\	3	.	4g\ 4dd 4bb	.	4dd\ 4bb	.	4G\	.	4B\	.	4g\	.	.	.	.	4g/	.	4dd\
!	!	!	!	!	!	!	!LO:LB:g=original	!	!	!	!	!	!LO:LB:g=original	!	!	!	!	!
=147	=147	=147	=147	=147	=147	=147	=147	=147	=147	=147	=147	=147	=147	=147	=147	=147	=147	=147
4c\	.	.	4g\ 4ee 4ccc	.	4ee\ 4ccc	.	4c\	-men	4c\	-men	4g\	-men	2ee\	.	.	4e/	.	4cc\
*	*	*	*	*	*	*	*	*	*	*	*	*ij	*	*	*	*	*	*
4A\	.	.	4ee\ 4ccc	.	4ee\ 4ccc	.	4A\	a-	2c\	a-	2a\	a-	.	.	.	4cc\	.	4ee\
4F\	6 5	.	4dd\ 4ccc	.	4dd\ 4ccc	.	4F\	.	.	.	.	.	2dd\	am-	.	4cc\	.	4dd\
!	!	!	!LO:SIC:v:n=1:s=4bb	!	!	!	!	!	!	!	!	!	!	!	!	!	!	!
4G\	.	.	4g\ 4dd 4ccc	.	4dd\ 4bb	.	4G\	.	4B\	.	4g\	.	.	.	.	4g/	.	4dd\
!	!	!	!LO:LB:g=original	!	!	!	!	!	!LO:LB:g=original	!	!	!	!	!	!	!	!	!
=148	=148	=148	=148	=148	=148	=148	=148	=148	=148	=148	=148	=148	=148	=148	=148	=148	=148	=148
4C/	.	.	4g\ 4ee 4ccc	.	4g\ 4ee 4ccc	.	4c\	-men	4c\	-men	4g\	-men	4ee\	-en	.	4e/	.	4cc\
*	*	*	*	*	*	*	*	*	*	*Xij	*	*	*	*	*	*	*	*
4r	.	.	4r	.	4r	.	4r	.	4r	.	4r	.	4r	.	.	4r	.	4r
4G\	.	.	4g\ 4dd 4bb	.	4g\ 4dd 4bb	.	4G\	a-	4B\	a-	4g\	a-	4dd\	a-	.	4g/	.	4dd\
4r	.	.	4r	.	4r	.	4r	.	4r	.	4r	.	4r	.	.	4r	.	4r
=149	=149	=149	=149	=149	=149	=149	=149	=149	=149	=149	=149	=149	=149	=149	=149	=149	=149	=149
!	!	!	!	!	!	!	!	!	!	!	!	!	!	!	!	!LO:TX:b:i:t=Confitebor Tacet	!	!LO:TX:b:i:t=Confitebor Tacet
4C/	.	.	4g\ 4ee 4ccc	.	4g\ 4ee 4ccc	.	4C/	-men	4c\	-men	4g\	-men	4ee\	-men	.	4e/	.	4cc\
*	*	*	*	*	*	*	*	*	*	*	*	*Xij	*	*	*	*	*	*
4r	.	.	4r	.	4r	.	4r	.	4r	.	4r	.	4r	.	.	4r	.	4r
2r	.	.	2r	.	2r	.	2r	.	2r	.	2r	.	2r	.	.	2r	.	2r
!LO:LB:g=original	!	!	!LO:LB:g=original	!	!LO:LB:g=original	!	!LO:LB:g=original	!	!LO:LB:g=original	!	!	!	!	!	!	!LO:LB:g=original	!	!LO:LB:g=original
==;	==	==	==;	==	==;	==	==;	==	==;	==	==;	==	==;	==	==	==;	==	==
*-	*-	*-	*-	*-	*-	*-	*-	*-	*-	*-	*-	*-	*-	*-	*-	*-	*-	*-
!!!system-decoration: [(s1,s2)][(s3,s4,s5,s6)][(s7,s8)]s9
!!!RDF**kern: < = below
!!!RDF**kern: > = above
!!!RDF**kern: | = vertical stroke
!!!AIN: 1 alto 1 bass 2 cor 1 organ 1 soprn 1 tenor 2 violn
!!!ENC: Mateusz Solarz
!!!END: 2021-11-29
!!!ENC: Marta Chmielewska
!!!END: 2021-12-08
